!!!COM:	L van Beethoven
!!!OTL:	String Quartet No12 Op127
**kern	**dynam
*I"Viola	*
*clefC3	*
*k[b-e-a-]	*
*E-:	*
*M2/4	*
=1	=1
!LO:TX:a:B:t=Maestoso	!
2E- 2B-	f
=2	=2
8E-L 8B-	.
4D	sf
8D	.
=3	=3
2E- 2B-	sf
=4	=4
8E-L 8B-	.
4F 4B-	sf
8F 8B-	.
=5	=5
4.E- 4.G	sf
8E-	.
=6	=6
[2E-	>
=7||	=7||
*M3/4	*
!LO:TX:t=sempre p  e  dolce	!
!LO:TX:a:B:t=Allegro	!
(4E-	p
4C	.
[4F)	.
=8	=8
(4F	.
[2E-	.
=9	=9
2E-	.
[4D)	.
=10	=10
(4D	.
4E-	.
4D-	.
=11	=11
4C	.
4A-	.
[4B-)	.
=12	=12
(2B-	.
4A-)	.
=13	=13
(2.F	.
=14	=14
4G	.
4A-	.
8B-L	.
8B)	.
=15	=15
(4c	.
4f	.
4d	.
=16	=16
4B-	.
4e-	.
4c)	.
=17	=17
(8B-L	.
8A-)	.
(8A-L	.
8G	.
4A-)	.
=18	=18
(4c	.
!LO:TX:t=cresc.	!
4B-	<
[4E-	.
=19	=19
4E-	.
4C	.
4F)	.
=20	=20
(8B-L	.
8G	.
8A-	.
8B-	.
8E-L	.
8F)	.
=21	=21
(8GL	.
8F)	.
(8FL	.
8E-	.
4F) 4A-	.
=22	=22
8GL	.
8c	.
8E-L 8G	[
8E- 8G	.
8E-L 8G	f
8E- 8G	.
=23	=23
8E-L 8G	.
8E- 8G	.
8E- 8G	.
8E- 8G	.
8E- 8G	.
8E- 8G	.
=24	=24
8FL 8A-	.
8F 8A-	.
8F 8A-	.
8F 8A-	.
8F 8A-	.
8F 8A-	.
=25	=25
8FL 8A-	.
8F 8A-	.
8F 8A-	.
8F 8A-	.
8F 8A-	.
8F 8A-	.
=26	=26
8DL 8B-	.
8D 8B-	.
8E-L 8B-	.
8E- 8G	.
8E- 8G	.
8E- 8G	.
=27	=27
8E-L 8G	.
8E- 8G	.
8E- 8G	.
8E- 8G	.
8A-L	.
8B-	.
=28	=28
8CL	sf
8C	.
8C	.
8C	.
8DL	.
8C	.
=29	=29
(8CL	sf
8B-)	.
8B-L	.
8B-	.
8A-L	.
8A-	.
=30	=30
(8FL	sf
8E-)	.
8BL	.
8c	.
8GL	.
8A-	.
=31	=31
(8A-L	sf
8G)	.
8FL	.
8E-	.
8D	.
8F	.
=32	=32
4E-	.
4r	.
4r	.
=33	=33
2.r	.
=34	=34
2.r	.
=35	=35
(4C	p
4G	.
4A-)	.
=36	=36
4A-)	.
4G	.
8dL	.
8e-	.
=37	=37
(8e-L	.
8d)	.
8c	.
8B-	.
8AL	.
8d	.
=38	=38
4G	.
4c	.
4F#	.
=39	=39
4B-	.
4D	.
(8F#L	.
8G)	.
=40	=40
8AL	.
!LO:TX:t=cresc.	!
4d	.
4D	.
8D 8c	.
=41||	=41||
*k[b-e-]	*
*g:	*
(4D 4B-	p
4D	.
8CL	.
8D	.
=42	=42
4E-	.
4C	.
8DL	.
8E-	.
=43	=43
2C)	[
8DL	>
[8E-	.
=44	=44
(4E-	.
4D	.
8CL	]
[8G	.
=45	=45
!LO:TX:t=dim.	!
[2.G)	.
=46	=46
2G	.
[4g	.
=47	=47
4g	.
!LO:TX:t=cresc.	!
(8EL	.
8F#	.
4G)	.
=48	=48
8AL	p
4D 4A	.
4D 4B-	.
8D 8c	.
=49	=49
*^	*
4G	[2.G	.
2g	.	.
=50	=50	=50
4.f#	[2G	<
8e-	.	.
8dL	8GL	.
8c	8r	[
=51	=51	=51
(2f#	[2.G	>
8gL	.	.
8a)	.	.
=52	=52	=52
(4f#	[2.G	]
[2g)	.	.
=53	=53	=53
!LO:TX:t=dim.	!	!
(2g	[2.G	.
[4d)	.	.
=54	=54	=54
(4f	[2.G	.
4d#)	.	.
4G	.	.
=55	=55	=55
!LO:TX:t=cresc.	!	!
(8gL	2.G	.
8e	.	.
4d	.	.
8c#L	.	.
8G)	.	.
*v	*v	*
=56	=56
8cL 8e-	.
8B- 8d	.
8B-J 8d	.
8ee-L	.
8dd	.
8dd	.
=57	=57
[2.g	p
=58	=58
(4g	<
4f#	[
4g)	>
=59	=59
4D	]
4r	<
(8E-L	.
8D)	.
=60	=60
4D	.
4r	[
(8E-L	>
8D)	.
=61	=61
!LO:TX:t=cresc.	!
[2.g	<
=62	=62
(4g	.
4f#	.
4g)	.
=63	=63
8GL	f
8f	.
8e-L	.
8d	.
8cL	.
8B-	.
=64	=64
8c#L	.
8c	.
8CL	.
8B-	.
8AL	.
8D 8A	.
=65	=65
4D 4G	f
4G	.
4G	.
=66	=66
4G	.
!LO:TX:t=ten.	!
4d	p
4d	.
=67	=67
[2.d	.
=68	=68
2.d	.
=69	=69
4G 4d	f
4G	.
4G	.
=70	=70
4r	.
!LO:TX:t=ten.	!
4d	p
4d	.
=71	=71
[2.d	.
=72	=72
2.d	.
=73	=73
2.r	.
=74	=74
4r	.
4c	pp
qqBt	.
qqcT	.
4cT	.
=75||	=75||
*k[f#]	*
*G:	*
*M2/4	*
!LO:TX:a:B:t=Maestoso	!
2D 2B	f
=76	=76
8DL 8B	.
4D 4c	sf
8D 8c	.
=77	=77
2D 2B	.
=78	=78
8DL 8B	.
4D 4d	sf
8D 8d	.
=79	=79
4.G 4.d	sf
8G 8g	.
=80	=80
4.C 4.G	>
[8C [8G	p
=81||	=81||
*M3/4	*
!LO:TX:a:B:t=Allegro	!
4C 4G	.
(4C	.
4c	.
=82	=82
4d	.
8eL	.
8f#	.
[4G)	.
=83	=83
(4G	.
4c	.
4A)	.
=84	=84
(4d	.
[2G)	.
=85	=85
(4G	.
[2C)	.
=86	=86
(4C	.
2D	.
=87	=87
4E	.
4e)	.
(8F#L	.
8f#)	.
=88	=88
(8dL	.
8c	.
8BL	.
8A	.
8G	.
8F)	.
=89	=89
!LO:TX:t=cresc.	!
(4E	<
4A	.
[4F#	.
=90	=90
4F#	.
4B	.
[4G	.
=91	=91
4G	.
4c	.
[4A	.
=92	=92
4A	[
4d	f
4B)	.
=93	=93
4G	f
(8GL	.
8A	.
4B)	.
=94	=94
4r	>
(8eL	.
8f#	.
4g)	.
=95	=95
4r	]
(8BL	p
8c	.
4e)	.
=96	=96
4r	.
(8AL	.
8B	.
8c	.
8d)	.
=97	=97
4B	.
4r	.
[4c	.
=98	=98
(4c	.
4B	.
4d)	.
=99	=99
(2.G	.
=100	=100
2.F	.
=101	=101
2.E-	.
=102	=102
2.D)	.
=103	=103
!LO:TX:t=cresc.	!
(2.C	.
=104	=104
2.F [2.G	.
=105	=105
4G)	.
4c	.
[4A)	.
=106	=106
(4A	.
4G	.
8AL	.
8B)	.
=107	=107
2.C 2.c	f
=108	=108
2.C 2.c	f
=109	=109
[2.C [2.c	f
=110	=110
2.C 2.c	.
=111	=111
(4C	p
[2g)	.
=112	=112
!LO:TX:t=dim.	!
8gL	.
(8c	.
8BL	.
8c	.
8E-L	.
8D	.
=113	=113
8CL)	pp
(8G	.
4a-	.
8gL	.
8b	.
=114	=114
4cc)	.
4r	.
4r	.
=115	=115
4r	.
(4c	.
4f)	.
=116	=116
(4F	.
4E-	.
4G)	.
=117||	=117||
*k[b-e-a-]	*
*E-:	*
(2.c	.
=118	=118
!LO:TX:t=cresc.	!
2.B-	<
=119	=119
2.A-	.
=120	=120
2G	.
4g)	.
=121	=121
8g-L	ff
8c 8e-	.
8cL 8e-	.
8c 8e-	.
8c 8e-	.
8c 8e-	.
=122	=122
8cL 8e-	.
8e-	.
8c	.
8A	.
8G-L	.
8E-	.
=123	=123
4e-	.
qqA	.
4g-	.
qqA	.
4g-	.
=124	=124
qqA	.
4g-	.
qqC	.
4G-	.
qqC	.
4G-	.
=125	=125
8FL	.
8D- 8B-	.
8D-L 8B-	.
8D- 8B-	.
8D- 8B-	.
8D- 8B-	.
=126	=126
8b-L	.
8f	.
8d-L	.
8B-	.
8FL	.
8D-	.
=127	=127
4f	.
qqB-	.
4f	.
qqB-	.
4f	.
=128	=128
qqB-	.
4f	.
qqD-	.
4F	.
qqF	.
4B-	.
=129	=129
8FL 8A-	.
8F 8A-	.
8F 8A-	.
8F 8A-	.
8F 8A-	.
8F 8A-	.
=130	=130
8a-L	.
8f	.
8BL	.
8A-	.
8F	.
8D-	.
=131	=131
4F 4A-	.
qqB	.
4a-	.
qqB	.
4a-	.
=132	=132
qqB	.
4a-	.
qqD-	.
4A-	.
qqD-	.
4A-	.
=133	=133
4C	.
(4c	.
4G)	.
=134	=134
4C	.
(4g	.
4e)	.
=135||	=135||
*k[]	*
*C:	*
*M2/4	*
!LO:TX:a:B:t=Maestoso	!
2C 2G	.
=136	=136
8CL 8G	.
4D 4G	.
8D 8G	.
=137	=137
2C 2G	.
=138	=138
8CL 8G	.
4D 4B	sf
8D 8B	.
=139||	=139||
*M3/4	*
!LO:TX:a:B:t=Allegro	!
[2.C [2.G	.
=140	=140
[2.C [2.G	.
=141	=141
4C 4G	p
4r	.
4r	.
=142	=142
2.r	.
=143	=143
(4g	.
4cc	.
4a)	.
=144	=144
(8gL	.
8f)	.
(8fL	.
8e	.
4f)	.
=145	=145
4e	.
8r	.
8e	.
8d	.
8e	.
=146	=146
8fL	.
8g	.
8a	.
8b	.
8cc#	.
8dd	.
=147	=147
4G 4g	.
(4d-	sf
4B-)	.
=148	=148
4G	p
(4B-	.
4G)	.
=149	=149
4B-	.
(4G	.
4d-)	.
=150	=150
4c	.
(4cc	.
4a-)	.
=151	=151
4F	.
(4c	sf
4A-)	.
=152	=152
4F	p
(4a-	.
4f)	.
=153	=153
4c	.
(4C	.
4A-)	.
=154	=154
4D- 4B-	.
(4b-	.
4g)	.
=155	=155
4G 4g	f
(4d-	sf
4B-)	.
=156	=156
4G	p
(4B-	.
4d-)	.
=157	=157
4g	.
(4D-	.
4E-)	.
=158	=158
4F-	.
(4C	.
4E-)	.
=159||	=159||
*k[b-e-a-]	*
*E-:	*
4E-	.
(4e-	sf
4c)	.
=160	=160
4A-	p
(4c	.
4A-)	.
=161	=161
4E-	.
(4c	.
4G)	.
=162	=162
4E	.
(4B-	.
4F)	.
=163	=163
4E	f
(4B-	sf
4F)	.
=164	=164
4E	.
(4e	.
4g)	.
=165	=165
4B-	.
!LO:TX:t=cresc.	!
(4B-	.
4G)	.
=166	=166
4E	.
*^	*
(4C	[2C	>
8A-L	.	]
8B-	.	.
*v	*v	*
=167	=167
8CL) 8c	.
8C	.
8DL	.
8E-	.
[4F	.
=168	=168
8FL	.
(8D	.
8E-	.
8F	.
4E-	.
=169	=169
4D	.
[2B-)	.
=170	=170
(4B-	.
8B-L	.
8A-	.
8G	.
8F	.
=171	=171
8E-L	.
8D	.
8C	.
8c	.
8FL)	.
[8f	.
=172	=172
(8fL	.
8F	.
4B-	.
[4E-)	.
=173	=173
(8E-L	.
8C	.
2D)	.
=174	=174
(8E-L	.
8G	.
8A-	.
8B-	.
8c	.
8d)	.
=175	=175
(8dL	.
8e-)	.
4r	.
4r	.
=176	=176
(8cL	.
8d)	.
4r	.
4r	.
=177	=177
*^	*
4e-	(8B-L	.
.	8c)	.
4.e-	4.c	.
*v	*v	*
(8c	.
=178	=178
8B-L	.
8A-	.
8G	.
8F	.
8E-	.
8D-)	.
=179	=179
(8CL	.
8E	.
8FL	.
8E	.
8F	.
8D	.
=180	=180
8E-L	.
8D	.
8E-	.
8D	.
8E-L	.
8C)	.
=181	=181
4B-	.
4B-	.
4B-	.
=182	=182
8E-L 8B-	.
8E- 8B-	.
8E-L 8B-	.
8E- 8G	.
8E-L 8G	f
8E- 8G	.
=183	=183
8E-L 8G	.
8E- 8G	.
8E- 8G	.
8E- 8G	.
8E- 8G	.
8E- 8G	.
=184	=184
8FL 8A-	.
8F 8A-	.
8F 8A-	.
8F 8A-	.
8F 8A-	.
8F 8A-	.
=185	=185
8DL	.
8D	.
8D	.
8D	.
8D	.
8D	.
=186	=186
8E-L	.
8E- 8G	.
8E- 8G	.
8E- 8G	.
8E- 8G	.
8E- 8G	.
=187	=187
8E-L 8G	.
8E- 8G	.
8E- 8G	.
8E- 8G	.
8E- 8G	.
8E- 8G	.
=188	=188
8E-L 8A-	.
8E- 8A-	.
8E- 8A-	.
8E- 8A-	.
[4a-	f
=189	=189
2a-	.
(8b-L	.
8cc)	.
=190	=190
2ee-	.
(8dd-L	.
8cc)	.
=191	=191
(8ccL	.
8b-)	.
8a-	.
8g	.
8f	.
8d-	.
=192	=192
8cL	.
8E- 8c	.
8E-L 8c	.
8E- 8c	.
8E- 8c	.
8E- 8c	.
=193	=193
8E-L 8c	.
8G-	.
8G-L	.
8G-	.
8G-	.
8C 8A-	.
=194	=194
8D-L 8A-	.
8D- 8A-	.
8D-L 8A	.
8D- 8B-	.
8D- 8B-	.
8D- 8B-	.
=195	=195
8E-L 8B-	.
8E- 8B-	.
8E-L 8B-	.
8E- 8c	.
8E- 8d-	.
8E- 8G	.
=196	=196
8CL 8G	.
8C 8c	.
8C 8c	.
8C 8c	.
8FL 8B-	.
8F 8B-	.
=197	=197
8DL 8B-	.
8E- 8c	.
8E-L 8G	.
8E- 8A-	.
8E- 8B-	.
8e-	.
=198	=198
4A-	.
4r	.
8ccL	p
8dd-	.
=199	=199
(8dd-L	.
8cc)	.
8b-	.
8a-	.
8g	.
8cc	.
=200	=200
4f	.
4b-	.
4e	.
=201	=201
4a-	.
(8fL	.
8g)	.
(8g	.
8a-)	.
=202	=202
4b-	.
4a-	.
4r	.
=203	=203
2.r	.
=204	=204
2.r	.
=205	=205
(4.E-	.
8C	.
8D	.
8E-)	.
=206	=206
8FL	.
!LO:TX:t=cresc.	!
4F	.
(8G	.
8F	.
8c-)	.
=207	=207
(2.B-	<
=208	=208
2A-	.
8GL	.
8F)	.
=209	=209
(2A-	.
8GL	[
8F)	.
=210	=210
(4F	.
[2E-)	.
=211	=211
!LO:TX:t=dim.	!
[2.E-	.
=212	=212
(2E-	.
4E	.
=213	=213
!LO:TX:t=cresc.	!
!LO:TX:t=cresc.	!
8FL	.
8E	.
8G	.
8F	.
[4G-)	.
=214	=214
8G-L	p
4F	.
4G	.
8A-	.
=215	=215
[2.E-	.
=216	=216
[2.E-	<
=217	=217
[2.E-	>
=218	=218
4E-	]
(4E-	.
4F	.
=219	=219
2.G	.
=220	=220
2.A-)	.
=221	=221
!LO:TX:t=cresc.	!
2A-	<
8FL	.
8E-	[
=222	=222
8DL	.
8E-	.
8E-L	.
8F	.
8B-L	.
8b-	.
=223	=223
4b-	p
4r	.
(8ccL	.
8b-)	.
=224	=224
4b-	>
4r	.
(8ccL	]
8b-)	.
=225	=225
4b-	.
4r	<
(8ccL	.
8b-)	.
=226	=226
4b-	.
4r	[
(8ccL	>
8b-)	]
=227	=227
!LO:TX:t=cresc.	!
[2.ee-	<
=228	=228
(4ee-	.
4dd	.
4ee-)	.
=229	=229
8B-L	f
8B-	.
8e-L	.
8d	.
8c	.
8B-	.
=230	=230
8A-L	.
8A-	.
8FJ 8A-	.
8fL	.
8g	.
8a-	.
=231	=231
4B- 4g	.
4E-	.
4E-	.
=232	=232
4E-	.
!LO:TX:t=ten.	!
4B-	p
4B-	.
=233	=233
[2.B-	.
=234	=234
4B-	.
4F 4A-	.
4F 4A-	.
=235	=235
4E- 4G	f
4E- 4G	.
4E- 4G	.
=236	=236
4E- 4G	.
4r	.
4r	.
=237	=237
4r	.
!LO:TX:t=ten.	!
4g	p
4g	.
=238	=238
4a-	.
4F	.
4F	.
=239	=239
2.r	.
=240	=240
4r	.
4f	.
4f-	.
=241	=241
[2.e-	.
=242	=242
[2.e-	.
=243	=243
(4e-	.
[2c)	.
=244	=244
2.c	.
=245	=245
(4c	.
4f	.
4d)	.
=246	=246
(8cL	.
8B-)	.
(8B-L	.
8A	.
4B-)	.
=247	=247
(8cL	.
8B-)	.
(8B-L	.
8A	.
4B-)	.
=248	=248
(8ccL	.
8b-)	.
(8b-	.
8a	.
8b-L)	.
[8B-	.
=249	=249
(2B-	.
[4f	.
=250	=250
2f	.
[4e-)	.
=251	=251
(2e-	.
[4d	.
=252	=252
4d	.
4e-	.
[4ee-)	.
=253	=253
!LO:TX:t=cresc.	!
(4ee-	<
4dd	.
[4ff	.
=254	=254
2ff	.
[4ee-)	.
=255	=255
(2ee-	.
[4dd	.
=256	=256
4dd	.
4ee-	.
4e-)	.
=257	=257
(8e-L	.
8d)	.
(8dL	.
8c	.
4d)	.
=258	=258
(8A-L	.
8G)	.
(8GL	.
8F	.
4G)	.
=259	=259
(8FL	[
8E-)	.
(8E-L	.
8D	.
8C	.
8D)	.
=260	=260
(8FL	.
8E-)	.
(8E-L	.
8D	.
8C	.
8D	.
=261	=261
8E-L	.
8F	.
4G)	>
(8B-L	.
8B	.
=262	=262
4c	.
4d-	.
8cL	]
8B-)	.
=263	=263
!LO:TX:t=cresc.	!
(8FL	.
8E-)	.
(8E-L	.
8D	.
8C	.
8D	.
=264	=264
8FL	.
8E-)	.
(8E-L	.
8D	.
8C	.
8D)	.
=265	=265
(2.E-	.
=266	=266
4D-	.
4C	.
8FL	.
8E-)	.
=267	=267
!LO:TX:t=p dolce	!
!LO:TX:t=p dolce	!
(4E-	.
4A-	.
(4F	.
=268	=268
!LO:TX:t=dim.	!
4F)	.
4B-	.
[4G)	.
=269	=269
(4G	.
4c	.
[4A-	.
=270	=270
4A-	.
4d-	.
4B-)	.
=271	=271
!LO:TX:t=cresc.	!
2c	<
[4B-	.
=272	=272
4B-	.
(4B-	.
4G	.
=273	=273
4F	.
4d	.
8e-L	.
8f)	[
=274	=274
!LO:TX:t=dim.	!
!LO:TX:t=dim.	!
(8fL	.
4e-	.
8f	.
4g	.
=275	=275
2.a-	.
=276	=276
2.g)	.
=277	=277
[2.f	p
=278	=278
(4f	.
4e-	.
4g	.
=279	=279
[2.f)	.
=280	=280
(4f	.
4e-)	.
4e-	pp
=281	=281
(2.f	.
=282	=282
4e-)	.
4r	.
4r	.
=283	=283
*k[b-e-a-d-]	*
*A-:	*
*M12/8	*
!LO:TX:a:B:t=Adagio ma non troppo e molto cantabile	!
8r	.
4r	.
8r	.
=284	=284
4r	.
[8D-	.
4D-	.
[8D-	.
[2.D-	.
=285	=285
[2.D-	pp
4D-	.
!LO:TX:t=cresc.	!
!LO:TX:t=cresc.	!
[8D-	.
4D-	.
8D-	.
=286	=286
[2.C	p
2.C	.
=287	=287
(4.D-	.
2.E-)	.
4.E-	.
=288	=288
(2.E-	.
4.C	.
4.A-)	.
=289	=289
(2.A-	.
4G)	.
[8E-	.
4E-	.
8E-	.
=290	=290
(4.E-	.
4F	.
8G	.
2.A-)	.
=291	=291
(2.G	.
4.B-	.
4.G)	.
=292	=292
2.A-	.
4.B-	.
4.B-	.
=293	=293
2.E- 2.B-	.
4E- 4B-	.
(8E-	.
4E-	.
8E-)	.
=294	=294
(4E-	.
8E-	.
4E-	.
8E-	.
4E-	.
8E-	.
4E-	.
8E-)	.
=295	=295
(4E-	.
8E-	.
4E-	.
8E-	.
4E-	.
8E-	.
4E-	.
8E-)	.
=296	=296
(4E-	.
8E-	.
4E-	.
8E-	.
4E-	.
8E-	.
4E-	.
8E-)	.
=297	=297
(4E-	.
8F	>
4G	.
8E-) 8d-	.
4E- 4c	]
(8E- 8B-	.
4E- 4B-	.
8E-) 8c	.
=298	=298
(4E- 4d-	.
8E- 8d-	.
4E- 4d-	.
8E- 8d-	.
4E- 4d-	.
8E- 8d-	.
4E- 4d-	.
8E-) 8d-	.
=299	=299
4E- 4c	.
8E-	.
4e-	.
8E- 8d-	.
4E- 4c	.
8E- 8c	.
(4E-	.
8G-)	.
=300	=300
!LO:TX:t=cresc.	!
(4F	<
8G-	.
4F	.
8E-	.
4D-	.
8d-	.
4c	.
8F) 8A-	.
=301	=301
(4A-	>
8A	.
4B-	.
8E-)	]
[4.E-	p
4E-	.
[8E-	.
=302	=302
!LO:TX:t=dim.	!
!LO:TX:t=dim.	!
4E-	>
(8G-	.
4F)	.
(8A-	.
4F)	]
!LO:TX:t=cresc.	!
(8A-	<
4c	.
8E-) 8B-	[
=303	=303
4E- 4A-	p
8r	.
4E- 4d-	pp
8r	.
4E- 4c	.
=||	=||
[8GL	p
(4G	<
16A-LL	>
16B-)	.
=304	=304
(4B-	]
[8c)	.
(4c	.
16d-	.
16e-)	.
(4e-	.
16d-	.
16c)	.
4.F 4.c	.
=305	=305
(8AL	.
8F	.
[8B-)	.
(8B-L	.
8d	.
16e-	.
16f)	.
(8fL	.
4b-)	.
(8e-L	.
16g	.
16a-	.
8b-)	.
=306	=306
(8g	.
8a-	.
16b-	.
16cc)	.
8A-L	.
8r	.
(16B-	.
16c	.
8B-L)	.
8r	.
(16c	.
16d-	.
8cL)	.
8r	.
(16d-	.
16e-)	.
=307	=307
!LO:TX:t=cresc.	!
(4e-	.
8a-	.
8ccL	.
8ee-)	.
8ee-	.
!LO:TX:t=dim.	!
8ee-L	.
(8E-	.
16F	.
16G)	.
!LO:TX:t=cresc.	!
!LO:TX:t=cresc.	!
(4G	.
16A-	.
16B-)	.
=308	=308
(8B-L	.
8A-	.
8D-)	.
(4D-	.
16C)	.
16a-	.
(4cc	.
16cc-	.
16b-)	.
(4b-	.
8a-)	.
=309	=309
(4c	.
16A-	.
16G)	.
(8G-L	.
4F)	.
(8FL	.
8B-	.
16c	.
16d-)	.
*^	*
(4d-	4.C	.
16c	.	.
16B-)	.	.
*v	*v	*
=310	=310
(4D- 4d-	.
16C) 16c	.
[16cc	.
(4cc	.
16c)	.
[16c	.
(4c	.
16g-)	.
[16g-	.
(4g-	.
16f)	.
[16f	.
=311	=311
(8fL	.
[4A-)	.
(4A-	.
8F)	.
(8DL	.
8E-)	.
[8E-	.
!LO:TX:t=cresc.	!
(8E-L	.
8G)	.
(16B-	.
16c)	.
=312	=312
(4c	sf
8d-)	.
4E-	.
(16F	.
16G)	.
(8A-L	.
8B-)	.
8B-	.
(8B-L	<
8G	.
8E-)	.
=313	=313
4E-	sf
8E-	p
(8cL	.
8A-	.
16B-	.
16c)	.
(8d-L	.
16f-	.
16d-	.
[8cJ)	.
8cL	.
8g-	.
16f	.
16e-)	.
=314	=314
!LO:TX:t=cresc.	!
(8e-L	<
8.f	.
16g-)	.
(8g-L	.
8.a-	.
16f-)	.
(8f-L	.
8.e-)	.
16C	.
(8CL	.
8.D-)	.
16D-	[
=315	=315
(8D-L	.
8C	.
8D-)	.
4E-	.
8E-	.
(8E-L	.
8A-	.
16E-	.
16C)	.
!LO:TX:t=cresc.	!
(8CL	.
16D-)	.
8E-	.
16E-	.
=316	=316
!LO:TX:t=sf	!
[4E-	.
(16E-	>
16F-)	.
(4F-	]
16E-	.
16D-)	.
4C	.
[8D-	.
!LO:TX:t=cresc.	!
!LO:TX:t=cresc.	!
4D-	.
(16C	.
16D-)	.
=317	=317
(8.D-L	sf
16C)	.
(16CLL	.
16A-)	.
(16A-LL	.
16G	.
16A-)	.
(16A-	.
16B-	.
16c)	.
(8d-L	.
8e-)	.
8e-	.
(16cLL	.
16B-	.
16A-	.
16c	.
16d-	.
16e-)	.
=318	=318
(8A-L	.
8.a-)	.
16a-	.
(8e-L	.
8.d	.
16d-)	.
(8d-L	.
8.c)	.
16C	.
(8cL	.
8.F) 8.A-	.
16F 16A-	.
=319	=319
8FL 8A-	.
8F 8A-	.
[8F	.
(8FL	p
8.G	.
16d-)	.
(8cL	.
8cc	.
16a-	.
16e-)	.
(8e-L	.
8.d-	.
16B-)	.
=320	=320
!LO:TX:t=dim.	!
8e-L	>
(8E-	.
16G-)	.
(16E-	.
4F)	.
16A-)	.
(16F-	.
4A-)	.
16c)	]
(16A-	.
!LO:TX:t=cresc.	!
[4B-)	<
16B-	.
(16b-	.
=321	=321
8ddL)	p
8r	.
16r	.
[16b-	pp
8b-L	.
8r	.
16r	.
(16b-	.
8ccL)	.
=322||	=322||
*M4/4	*
!LO:TX:a:B:t=Andante Con moto	!
16E-LL	p
16r	.
16D	.
16r	.
16D-LL	.
16r	.
=323	=323
16CLL	.
16r	.
16C	.
16r	.
16CLL	.
16r	.
16C	.
16r	.
16CLL	.
16r	.
16C	.
16r	.
16CLL	.
16r	.
16C	.
16r	.
=324	=324
!LO:TX:t=sempre staccato	!
16D-LL	.
16r	.
16D-	.
16r	.
16D-LL	.
16r	.
16D-	.
16r	.
16D-LL	.
16r	.
16D-	.
16r	.
16D-LL	.
16r	.
16D	.
16r	.
=325	=325
16E-LL	.
16r	.
16A-	.
16r	.
16A-LL	.
16r	.
16d-	.
16r	.
16A-LL	.
16r	.
16B-	.
16r	.
16cLL	.
16r	.
16d-	.
16r	.
=326	=326
16e-LL	.
16r	.
16A- 16e-	.
16r	.
16A-LL 16e-	.
16r	.
16A- 16e-	.
16r	.
16GLL 16e-	.
16E- 16G	.
16G 16e-	.
16E- 16G	.
16GLL 16e-	.
16E- 16G	.
16B- 16e-	.
16E- 16B-	.
=327	=327
16cLL 16e-	.
16E-	.
16E- 16c	.
16C	.
16E-LL 16c	.
16C	.
16E- 16c	.
16C	.
16E-LL 16c	.
16C	.
16E- 16c	.
16C	.
16E-LL 16c	.
16C	.
16A- 16e-	.
16E-	.
=328	=328
16GLL 16e-	.
16E- 16G	.
16G 16e-	.
16E- 16G	.
16GLL 16e-	.
16E- 16G	.
16G 16e-	.
16E- 16G	.
16GLL 16e-	.
16E- 16G	.
16A- 16e-	.
16A-	.
16B-LL 16e-	.
16B-	.
16B- 16e-	.
16G	.
=329	=329
16CLL 16c	.
16C 16A-	.
16C 16G	.
16C	.
16CLL 16c	.
16C 16A-	.
16C 16c	.
16C 16A	.
16GLL 16e-	.
16E- 16G	.
16G 16e-	.
16E- 16G	.
16GLL 16e-	.
16E- 16G	.
16A- 16f	.
16F 16A-	.
=330	=330
16A-LL 16f	.
16D	.
16A- 16f	.
16D	.
16A-LL 16f	.
16D	.
16d 16f	.
16F 16A-	.
16GLL 16e-	.
16B-	.
16E- 16c	.
16E-	.
16E-LL 16d-	.
16G	.
16A-	.
16E-	.
=331	=331
!LO:TX:t=poco cresc.	!
16B-LL 16e-	.
16G	.
16B-	.
16G	.
16d-LL	.
16E-	.
16d-	.
16E-	.
8E-L 8d-	.
8r	.
8r	.
(16dd-	<
32cc	.
32b-	.
=332	=332
16a-LL)	.
8C	.
(32C	.
32E-	.
16A-JJ)	.
8cL	.
(32c	.
32d-	.
8e-L)	.
(16a-	.
32f	.
32d-)	[
!LO:TX:t=piu cresc.	!
(16cLL	.
32A-	.
32C)	.
(16e-LL	.
32c	.
32A-)	.
=333	=333
16a-JJ	f
8D-L	.
(32D-	.
32E-	.
16F-JJ)	.
8d-L	sf
(32d-	.
32e-)	.
16f-LL	.
16r	.
16a-	p
16r	.
16a-LL 16b-	.
16r	.
16a- 16b-	.
16r	.
=334	=334
16a-LL 16cc	.
16r	.
16cc	.
16r	.
16gLL 16b-	.
16r	.
16b-	.
16r	.
16a-LL	.
16r	.
(16a-	.
32e-	.
32c	.
8B-J)	.
(16B-LL	.
32B-	.
32E-)	.
=335	=335
8cJ	.
(16e-LL	.
32c	.
32G-)	.
8r	.
(16f	.
32d-	.
32A-)	.
8r	.
(16e-	.
32c	.
32A-	.
8GJ)	.
(16B-LL	.
32G	.
32D-	.
=336	=336
8CJ)	.
(16cLL	.
32A-	.
32E-	.
8D-J)	.
(16B-LL	.
32G	.
32D-)	.
16CLL 16c	.
16C	.
16C 16A-	.
16C	<
16GLL 16B-	.
16E-	.
16c 16e-	.
16E-	.
=337	=337
16E-LL 16d-	.
16G	[
16E- 16d-	.
16B-	.
16E-LL 16d-	.
16B-	.
16E- 16B-	.
16G	.
16E-LL 16B-	.
16E-	.
16E- 16B-	.
16E-	.
16E-LL 16c	.
16C	.
16E- 16d-	.
16D-	.
=338	=338
16E-LL 16A-	.
16C	.
16E- 16A-	.
16C	.
16E-LL 16A-	.
16E-	.
16E- 16c	.
16A-	.
16E-LL 16A-	.
16C	.
16E- 16c	.
16C	.
16E-LL 16c	.
16C	.
16E- 16c	.
16C	.
=339	=339
!LO:TX:t=cresc.	!
16A-LL	.
16F-	<
16A-	.
16F-	.
16A-LL	.
16F-	.
16A-	.
16F-	.
16A-LL	.
16D-	.
16A-	.
16F	.
16B-LL 16e	.
16D-	.
16B-	[
16D	.
=340	=340
16cLL 16e-	p
16E-	.
16c 16e-	.
16E-	.
16B-LL 16g	.
16G 16e-	.
16B- 16e-	.
16G 16e-	.
16cLL 16e-	.
16C	.
16cLL 16e-	.
16A	.
16B-LL 16e-	.
16E-	.
16GLL 16e-	.
16E- 16B-	.
=341	=341
!LO:TX:t=dim.	!
16cLL 16e-	.
16C 16A-	>
16cLL 16a-	.
16C 16c	.
16d-LL 16a-	.
16F 16d-	.
16d-LL 16a-	.
16A- 16a-	]
16A-LL 16a-	.
!LO:TX:t=cresc.	!
16E-	<
16cLL 16a-	.
16E-	.
16B-LL 16g	.
16E-	.
16B-LL 16e-	.
16D-	[
=342	=342
!LO:TX:t=dim.	!
16B-LL 16e-	.
16C	>
16A-LL 16e-	.
16C	.
16B-LL 16e-	.
16D-	.
16GLL 16e-	.
16E-	.
16A-LL 16e-	.
16C	.
16A-LL	.
16C	]
(8C#L	p
[8E)	.
=343||	=343||
*k[f#c#g#d#]	*
*E:	*
*M2/2	*
!LO:TX:a:B:t=Adagio molto es-	!
(2.E	.
4G)	.
=344	=344
!LO:TX:a:B:t=pressivo	!
2F#	.
2F# 2B	.
=345	=345
!LO:TX:t=cresc.	!
(4E 4B	.
4E) 4c#	.
(4E 4B	.
4A#)	.
=346	=346
4B	p
(8E	.
[8G	.
8GL	.
8F#)	.
8f#L)	.
8f#	.
=347	=347
(4B	.
2.e)	.
=348	=348
(2d#	.
2f#)	.
=349	=349
!LO:TX:t=cresc.	!
!LO:TX:t=cresc.	!
4e	<
(4G#	.
4F#	.
4E)	.
=350	=350
[2E [2G	[
8EL 8G	p
!LO:TX:t=cresc.	!
!LO:TX:t=cresc.	!
4F#	.
8F#	.
=351	=351
(2F#	.
2A	.
=352	=352
2G#	.
2B)	.
=353	=353
!LO:TX:t=cresc.	!
(4A	<
[4F#)	.
2F#	.
=354	=354
4.C 4.c	f
[8F#	.
(8F#L	p
8G#)	.
8g#L	.
8g#	.
=355	=355
(4.a	.
8g#	.
4f#	.
8g#	.
8a)	.
=356	=356
(4.b	.
8a	.
4g#	.
8a	.
8b)	.
=357	=357
!LO:TX:t=cresc.	!
4f#	.
2.C 2.c	.
=358	=358
4.C 4.c	f
8D# 8B	.
*^	*
4B	8D#L	p
.	8E	.
*v	*v	*
!LO:TX:t=dim.	!
(8C 8c	>
8D#)	.
=359	=359
[2E	.
4E	.
4E	.
=360	=360
(4.E	.
8D#)	]
=361||	=361||
*M12/8	*
!LO:TX:a:B:t=Tempo 1	!
8r	pp
(8E	.
8E	.
8EL	.
8E	.
8E)	.
=362	=362
(8EL	.
[4E-)	.
[4.E-	.
[4.E-	.
8E-	.
(8E-	.
8E-)	.
=363	=363
*k[b-e-a-d-]	*
*A-:	*
[2.E- [2.B-	.
[4.E- [4.B-	.
8E-L 8B-	.
(8E- 8B-	.
8E-) 8B-	.
=364	=364
8E-L 8c	.
!LO:TX:t=cresc.	!
[4G-	<
4.G-	.
[4.F [4.B-	.
8FL 8B-	.
(8F 8B-	.
8F) 8B-	.
=365	=365
*^	*
2.A-	4.E-	p
!LO:TX:t=cresc.	!	!
.	[4.F	.
[4.G	8FL	p
.	[4E-	.
8GL	8E-L	.
8A-	8E-	.
8B-	8E-	.
*v	*v	*
=366	=366
(8E-L 8c	.
8E- 8c	.
8E-) 8c	.
(8E-L 8c	.
8E- 8c	.
8E-) 8c	.
(8E-L 8c	.
8E- 8c	.
8E-) 8c	.
(8E-L 8c	.
8E- 8c	.
8E-) 8c	.
=367	=367
(8E-L 8d-	.
8E- 8d-	.
8E-) 8d-	.
(8E-L 8B-	.
8E- 8B-	.
8E-) 8B-	.
(8E-L 8B-	.
8E- 8B-	.
8E-) 8d-	.
(8E-L 8d-	.
8E- 8d-	.
8E-) 8B-	.
=368	=368
!LO:TX:t=cresc.	!
(8E-L	<
8E	.
8F)	.
(8FL	.
8G	.
8A-)	.
(8AL	.
8B-)	.
8B-	.
8B-L	>
8B-	.
8B-	]
=369	=369
8E-L 8B-	p
8E- 8B-	.
8E- 8B-	.
8E-L 8B-	.
8E- 8B-	.
8E- 8B-	.
8E-L 8B-	.
!LO:TX:t=cresc.          -                     -                -               -	!
!LO:TX:t=cresc.          -                     -                -               -	!
(8E-	.
8F)	.
(8FL	.
8G	.
8A-)	.
=370	=370
8E-L 8d-	.
8E- 8d-	.
8E- 8d-	.
8E-L 8d-	.
8E- 8d-	.
8E- 8d-	.
8E-L 8d-	.
8E- 8d-	.
8E- 8d-	.
8E-L 8d-	.
8E- 8d-	.
8E- 8d-	.
=371	=371
!LO:TX:t=rinf.    -              -              -	!
8E-L 8c	.
8E- 8c	.
8E- 8c	.
8E-L 8c	.
8E- 8c	.
8E- 8c	.
8E-L 8c	.
8E- 8c	.
8E- 8c	.
8E-L 8c	.
8E- 8c	.
8E- 8c	.
=372	=372
!LO:TX:t=rinf.      -              -            -	!
!LO:TX:t=rinf.      -              -            -	!
8FL 8B-	.
8F 8B-	.
8F 8B-	.
8FL 8B-	.
8F 8B-	.
8F 8B-	.
8FL 8B-	.
8F 8B-	.
8F 8B-	.
8FL 8B-	>
8E- 8B-	.
8D 8B-	.
=373	=373
8E-L 8c	p
8E- 8A-	.
8E- 8c	.
8E-L 8B-	.
8E- 8d-	.
8E- 8B-	.
(8E-L 8c	.
!LO:TX:t=cresc.	!
8B-	<
8c)	.
(8cL 8e-	.
8d-	.
8E-) 8c	.
=374	=374
8E-L 8c	.
[4E- [4d-	.
4E- [4d-	.
(16d-	.
16c)	.
[4c	.
(16c	.
16B-)	.
[4c	.
(16c	.
16d-)	.
=375	=375
[4d-	rfz
[8e-	.
[4e-	.
(16e-	.
16d-)	.
[4d-	.
(16d-	.
16c)	.
[4d-	.
(16d-	.
16e-)	.
=376	=376
[4.f	rfz
[4f	.
(16f	.
16g)	.
[4a-	.
(16a-	.
16b-)	.
[4dd	.
(16dd	.
16dd-)	.
=377	=377
(16dd-LL	.
[8.cc	.
16ccLL	.
16a-)	.
[4g	.
(16g	.
16e-)	.
!LO:TX:t=cresc.	!
(8e-L	<
[8c)	.
16c	.
16c	.
([4d-	.
16d-	.
16g)	.
=378	=378
!LO:TX:t=dim.	!
[4g-	>
16g-	.
16c	.
(8fL	.
8.f-	.
16d-)	.
[4e-	.
(16e-	.
16c)	.
[4G	.
(16G	.
16d-)	.
=379	=379
4c	p
8r	.
4d-	.
8r	.
4c	.
8r	.
4r	.
8r	.
=380	=380
4dd-	pp
8r	.
4ee-	.
8r	.
4a-	.
8r	.
4r	.
8r	.
=381	=381
4r	.
!LO:TX:t=sotto voce	!
(8E	.
4F	.
8A)	.
[2.B-	.
=382	=382
(4B-	.
8B	.
4c	.
8e-	.
[2.g-)	.
=383	=383
4g-	.
(8e	.
[4.f)	.
4f	.
(8d	.
[4.e-)	.
=384	=384
(4e-	.
8d-	.
[4.c)	.
(4c	.
8B-	.
4A-	.
8C)	.
=385||	=385||
*k[f#c#g#d#]	*
*c#:	*
[2.C#	.
!LO:TX:t=cresc.	!
4C#	<
(8e	.
4g#	.
8B	.
=386	=386
4A	.
8c#	.
4e	.
8G#	.
4F#	.
8A	.
4c#	.
8E)	.
=387	=387
(4c#	p
8D#	.
4B#	.
8D#)	.
4C#	.
!LO:TX:t=cresc.	!
(8e	<
4g#	.
8B	.
=388	=388
4A	.
8c#	.
4e	.
8G#	.
4F#	.
8A	.
4c#	.
8E)	[
=389	=389
(4c#	p
8D#	.
4B#	.
8D#)	.
[4.E	.
(4E	.
8F#)	.
=390	=390
4E	.
[8e	.
(4e	.
8f#)	.
2.e	.
=391	=391
4A	.
!LO:TX:t=cresc.	!
(8A	<
4A)	.
8G#	.
4F#	.
8E	.
4D	.
8C#)	[
=392||	=392||
*k[b-e-a-d-]	*
*A-:	*
(4E-	p
8A-	.
4F	.
8G)	.
(8gL	.
8a-	.
8e-	.
8dL	.
8d-	.
8B-)	.
=393	=393
!LO:TX:t=cresc.	!
(8BL	<
8c	.
8C	.
8FL	.
8B-	.
8G	.
8B-L	.
8A-	.
8G	.
8GL	>
8d-	.
16cLL	.
16B-)	]
=394	=394
4.E-	p
4.E-	.
4.E-	.
4.E-	.
=395	=395
4.E-	.
4.E-	.
4.E-	.
4.E-	.
=396	=396
4.E-	.
4.F	.
4.G	.
4.A-	.
=397	=397
!LO:TX:t=cresc.	!
4.A-	<
4.A-	.
[4.G	p
(16GLL	.
16A-	.
16B-	.
16c	.
16d-	.
16c)	.
=398	=398
!LO:TX:t=cresc.	!
(16B-LL	<
16A-	.
16G	.
16A-	.
16B-	.
16c	.
16d-LL	.
16c	.
16B-	.
16c	.
16d-	.
16e-	.
16fLL	.
16e-	.
16d-	.
16c	.
16B-	.
16A-	.
16GLL	.
16F	.
16E-	.
16D-	.
16C	.
16D-)	.
=399	=399
(16CLL	.
16E-	.
16c	.
16B-	.
16A-	.
16B-	.
16cLL	.
16G	.
16A-	.
16B-	.
16c	.
16d-	.
16cLL	.
16e-	.
16d-	.
16c	.
16B-	.
16A-	.
16GLL	.
16F	.
16E-	.
16D-	.
16E-	.
16e-)	[
=400	=400
(16A-LL	f
16C	.
16D-	.
16E-	>
16F	.
16G-	.
16A-LL	.
16G-	.
16F	.
16G-	.
16F	]
16E-)	p
16D-LL	.
(16cc	.
16dd-	.
16cc	.
16dd-	.
16g-	.
!LO:TX:t=cresc.	!
16fLL	.
16e	.
16f	.
16e-	.
16d-	.
16d)	.
=401	=401
(16cLL	.
16d-	.
16c	.
16a-	.
16g	.
16a-	.
16GLL	.
16A-	.
16G	.
16g	.
16f#)	.
16g	.
(16e-LL	.
16d	.
16e-	.
16c	.
16d-	.
16c	.
16GLL	.
16A-	.
16G)	.
(16G	.
16E-	.
16G)	.
=402	=402
!LO:TX:t=dim.	!
(8.E-L	>
16G-	.
8F	.
8.B-L	.
16F-	.
8E-)	.
(8.E-L	.
16F	.
8E-)	]
!LO:TX:t=cresc.	!
(8.E-L	.
16F)	.
8E-	.
=403	=403
2.r	.
8E-L	pp
8E-	.
8E-	.
8E-L	.
8E-	.
8E-	.
=404	=404
8E-L	.
8E-	.
8E-	.
8E-L	.
8E-	.
8E-	.
8E-L	.
8C	.
8C	.
8CL	.
8C	.
8C	.
=405	=405
8D-L	.
8D-	.
8D-	.
8D-L	.
8D-	.
8D-	.
8D-L	.
8D-	.
8D-	.
8D-L	.
8D-	.
8D-	.
=406	=406
!LO:TX:t=cresc.	!
8D-L	<
8D-	.
(16D-	.
16C)	.
8D-L	.
8f	.
(16f	.
16g)	.
(16gLL	.
16a-)	.
8a-	.
8a-	.
(16aLL	>
16b-)	.
8b-L	.
8B-	.
=407	=407
4A-	p
8r	.
4A-	.
8r	.
4A-	.
8r	.
4r	.
8r	.
=408	=408
4B 4e	pp
8r	.
4B 4f#	.
8r	.
4E	.
8r	.
4r	.
8r	.
=409	=409
4c	p
8r	.
4d-	.
8r	.
4E- 4c	.
8r	.
4E- 4d-	.
8r	.
=410	=410
8r	.
8r	.
(16e-	.
16e)	.
(16cLL	.
16A-	.
16c	.
16F	.
16A-LL	.
[16B-)	.
(16B-LL	.
16d-	.
16B-	.
16c)	.
(16FLL	.
16F-	.
4E-)	.
!LO:TX:t=cresc.	!
(16c	.
16B-)	.
=411	=411
!LO:TX:B:t=Rit.	!
!LO:TX:B:t=Rit.	!
!LO:TX:B:t=Rit.	!
!LO:TX:B:t=Rit.	!
4E- 4d-	.
8E- 8d-	.
8E-L 8d-	.
8E- 8d-	.
8E- 8d-	.
16%3E-L 16%3d-	p
16%3E- 16%3c	pp
4.r	.
=412	=412
*k[b-e-a-]	*
*E-:	*
*M3/4	*
!LO:TX:t=pizz.	!
!LO:TX:a:B:t=Scherzando vivace	!
8B-L 8e-	.
8r	.
8B-L 8d	.
8r	.
8B-L 8e-	.
8r	.
=413	=413
4B- 4d	.
4r	.
4r	.
=414!|:	=414!|:
2.r	.
=415	=415
2.r	.
=416	=416
2.r	.
=417	=417
4r	.
8.r	.
!LO:TX:t=arco	!
16cc	pp
8b-	.
16r	.
16g	.
=418	=418
4a-	.
8.r	.
16a-	.
8g	.
16r	.
16e	.
=419	=419
4f	.
8.r	.
16f	.
8e-	.
16r	.
16c	.
=420	=420
(2d	.
4cT)	.
=421	=421
4B-	.
4r	.
4r	.
=422	=422
(2E-	.
4Dt)	.
=423	=423
4C	.
4r	.
4r	.
=424	=424
(2F	.
4E-T)	.
=425	=425
4D	.
4r	.
4r	.
=426	=426
(2G	.
4FT)	.
=427	=427
4E-	.
!LO:TX:t=cresc.	!
4.A-	<
8F	[
=428	=428
4E-	f
(4e-	p
4fT)	.
=429	=429
(2g	.
4a-)	.
=430	=430
(2a-	.
4gt)	.
=431	=431
4f	.
(4d	.
4e-T)	.
=432	=432
(2f	.
4e-T)	.
=433	=433
(4f	.
4e	.
8fTL	.
8a-)	.
=434	=434
(4g	.
4e-	.
4d)	.
=435	=435
(4e-	.
[2B-)	.
=436	=436
(4B-	.
4e-	.
4d)	.
=437	=437
(4e-	p
!LO:TX:t=cresc.	!
4g	.
4f)	.
=438	=438
4f	f
4c	.
4G 4d	.
=439	=439
4r	.
4g	p
4r	.
=440	=440
4r	.
4a	.
4r	.
=441	=441
8dL	f
8c	.
8B	.
8d	.
8c	.
8B	.
=442	=442
8e-L	p
8cc	.
8ee-L	.
8cc	.
8dd	.
8ee-	.
=443	=443
8e-L	.
8c	.
8e-	.
8c	.
8dL	.
8e-	.
=444	=444
!LO:TX:t=cresc.	!
8fL	<
8f	.
8e-L	.
8d	.
8c	.
8B-	.
=445	=445
8AL	.
8G	.
8F	.
8E-	.
8DL	.
8C	.
=446	=446
8B-L	f
8A	.
8A	.
8c	.
8cL	.
8c	.
=447	=447
4B-	.
4b-	.
4r	.
=448:|!	=448:|!
4B-	.
8b-L	.
16r	ff
16B	.
8c	.
16r	.
16e-	.
=449!|:	=449!|:
8CL	.
16r	.
16D	.
8FL	.
16r	.
16E-	.
8FL	.
16r	.
16A-	.
=450	=450
8GL	.
16r	.
16A	.
8cL	.
16r	.
16B	.
8cL	.
16r	.
16e-	.
=451	=451
8dL	.
16r	.
16e-	.
8fL	.
16r	.
16e	.
8fL	.
16r	.
16f#	.
=452	=452
8GL	.
16r	.
16G	.
8gL	.
8r	.
4r	.
=453	=453
2.r	.
=454	=454
8.r	.
16G	p
4C	.
4r	.
=455	=455
2.r	.
=456	=456
8.r	.
16d	.
4G	.
4r	.
=457	=457
2.r	.
=458	=458
8.r	.
16c	.
8gL	.
16r	.
!LO:TX:t=cresc.	!
16C	<
8GL	.
8G	.
=459	=459
(8FL	p
8c	.
8a-)	.
8c	.
8FL	.
8c	.
=460	=460
(8FL	.
8c	.
8a-)	.
8c	.
8FL	.
8c	.
=461	=461
(8EL	.
8c	.
8g)	.
8c	.
8FL	.
8c	.
=462	=462
8EL	.
8c	.
8F	.
16r	.
16f	.
!LO:TX:t=cresc.	!
8e-L	.
16r	.
16c	.
=463	=463
4A-	p
8.r	.
16A-	.
8G-	.
16r	.
16E-	.
=464	=464
4F	.
8.r	.
16g-	.
8f	.
16r	.
16d-	.
=465	=465
4A- 4a-	.
8.r	.
16c	.
8d-	.
16r	.
16A-	.
=466	=466
4A-	.
8.r	.
!LO:TX:t=cresc.	!
16C	<
8D-	.
16r	.
16A-	.
=467	=467
4A-	.
8.r	.
16F	.
8G-	.
16r	.
16A-	.
=468	=468
4A-	.
8.r	.
16E-	.
8F	.
16r	.
16A-	.
=469	=469
4G-	.
8.r	.
16G-	.
8A-	.
16r	.
16B-	.
=470	=470
8B-L	sf
16r	.
16F	.
8G-L	.
16r	.
16B-	.
8A-L	.
16r	.
16A-	.
=471	=471
8B-L	.
16r	.
16d-	.
8c-L	.
16r	.
16G-	.
8A-L	.
16r	.
16d-	[
=472	=472
8d-L	ff
16r	.
16g-	.
8d-L	.
16r	.
16g-	.
8d-L	.
16r	.
16g-	.
=473	=473
8c-L	.
16r	.
16e-	.
8c-L	.
16r	.
16e-	.
8c-L	.
16r	.
16e-	.
=474	=474
8B-L	.
16r	.
16d-	.
8B-L	.
16r	.
16d-	.
8B-L	.
16r	.
16d-	.
=475	=475
8A-L	.
16r	.
16f	.
8A-L	.
16r	.
16f	.
8A-L	.
16r	.
16f	.
=476	=476
8AL	pp
16r	.
16f#	.
8AL	.
16r	.
16f#	.
8AL	.
16r	.
16f#	.
=477	=477
8AL	.
16r	.
16f#	.
8AL	.
16r	.
16f#	.
8AL	.
16r	.
16f#	.
=478	=478
8DL 8d	f
16r	.
16D	.
8EL	.
16r	.
16G	.
8F#L	.
16r	.
16G	.
=479	=479
8B-L	.
16r	.
16A	.
8B-L	.
16r	.
16d	.
8cL	.
16r	.
16d	.
=480	=480
8e-L	.
16r	.
16d	.
8eL	.
16r	.
16g	.
8f#L	.
16r	.
16g	.
=481	=481
8b-L	.
16r	.
16a	.
8ccL	.
16r	.
16dd	.
4ee-	.
=482||	=482||
*M2/4	*
!LO:TX:a:B:t=Allegro	!
4r	.
(4C	p
=483	=483
4D	.
4F#)	.
=484	=484
(4G	.
4B-)	.
=485	=485
(8AL	.
16B-	.
16A)	.
8GL	.
8B-	.
=486	=486
8e-L	.
8d	.
8f#L	.
8g	.
=487||	=487||
*M3/4	*
!LO:TX:a:B:t=Tempo I	!
[2.e-	pp
=488	=488
4e-	.
4r	.
4r	.
=489	=489
4r	.
(4G	.
4B)	.
=490||	=490||
*M2/4	*
!LO:TX:a:B:t=Allegro	!
(4C	p
4E-)	.
=491	=491
(8D	.
16E-	.
16D)	.
8CL	.
8E-	.
=492	=492
8A-L	.
8G	.
8BL	.
8c	.
=493||	=493||
*M3/4	*
!LO:TX:a:B:t=Tempo I	!
[2.c [2.g	pp
=494	=494
[2.c [2.g	.
=495	=495
4.c 4.g	.
16r	.
16E	.
8G	.
16r	.
16A-	.
=496	=496
4B-	.
8.r	.
16e	.
8g	.
16r	.
16cc	.
=497	=497
4cc	.
8.r	.
16C	.
8F	.
16r	.
16G	.
=498	=498
4A-	.
8.r	.
16C	.
!LO:TX:t=cresc.	!
8D-	<
16r	.
16d-	.
=499	=499
4c	.
8.r	.
16F	.
8G	.
16r	.
16e-	.
=500	=500
4a-	.
8.r	.
16a-	.
8g	.
16r	.
16g	.
=501	=501
8fL	f
16r	.
16b-	.
8b-L	.
8B-	.
8DL	.
8B-	.
=502	=502
!LO:TX:t=sempre	!
8E-L	.
8B-	.
8E- 8G	.
8E-	f
8F	.
8A-	.
=503	=503
8GL	.
8g 8b-	.
8GL	.
8G	.
8A-	.
8A	.
=504	=504
8B-L	.
8f	.
8FL	.
8B-	.
8G	.
8B-	.
=505	=505
8A-L	.
8F	.
8D	.
16r	.
16G	.
4b-	.
=506	=506
8.r	.
16F	.
8d	.
16r	.
16d	.
4e-	.
=507	=507
8.r	.
16E	.
8F	.
16r	.
16G	.
4A-	.
=508	=508
2.r	.
=509	=509
8.r	.
16d	.
8e-	.
16r	.
16g	.
8fL	.
16r	.
16f	.
=510	=510
4G 4g	.
8.r	.
16E-	.
4e-	.
=511	=511
4r	.
8.r	.
16E-	.
4e-	.
=512	=512
4r	.
8.r	.
16B-	.
4b-	.
=513	=513
4r	.
8.r	.
16B-	.
4b-	.
=514	=514
8.r	.
16F	.
4f	.
4r	.
=515	=515
4r	.
8.r	.
16G	.
8A-	.
16r	.
16c	.
=516	=516
(4B-	.
4E-	.
4Dt)	.
=517	=517
(2E-	sf
4FT)	.
=518	=518
(2E-	.
4Dt)	p
=519	=519
!LO:TX:t=cresc.	!
(2E-	<
4FT)	.
=520	=520
(4E-	.
4G	.
4dt)	.
=521	=521
8e-L	.
16r	.
16e-	.
8e-L	.
16r	.
16e-	.
8e-L	.
16r	[
16c	.
=522	=522
4c	f
4c	.
4d	.
=523	=523
4r	.
4cc	p
4r	.
=524	=524
4r	.
4e-	.
4r	.
=525	=525
4d	f
4f	.
4g	.
=526	=526
4r	.
4f	p
4r	.
=527	=527
4r	.
4B- 4d	.
4r	.
=528	=528
2.r	.
=529	=529
8A-L	p
8G	.
8F	.
8A-	.
8G	.
8F	.
=530	=530
8b-L	.
8b-	.
8b-	.
8b-	.
8b-	.
8b-	.
=531	=531
8a-L	.
8f	.
!LO:TX:t=cresc.	!
8fL	<
8e-	.
8d	.
8f	.
=532	=532
8e-L	.
8d	.
8c	.
8B-	.
8A-	.
8G	.
=533	=533
8FL	f
8E-	.
8DL	.
8C	.
8B-L	.
8A-	.
=534	=534
4E- 4G	.
8e-L	.
16r	.
16B	ff
8c	.
16r	.
16E-	.
=535:|!	=535:|!
8GL	f
16r	.
16G	.
8AL	.
16r	.
16c	.
4B-	.
=536	=536
8.r	.
16E-	.
8FL	.
16r	.
16A-	.
4G	.
=537	=537
8.r	.
16C	.
8DL	.
16r	.
16F	.
8E-L	.
16r	.
16G	.
=538	=538
2.F	p
=539	=539
4F	.
8.r	.
16d	.
8e-	.
16r	.
16g	.
=540	=540
(4f	.
2F)	.
=541	=541
4F	.
8E-L	.
16r	.
16E-	.
8FL	.
16r	.
16B-	.
=542	=542
(2B-	.
4A-T)	.
=543	=543
8GL	.
16r	.
16D	.
8E-L	.
16r	.
!LO:TX:t=cresc.	!
16G	.
8CL	.
16r	.
16D	.
=544	=544
!LO:TX:t=dim.	!
!LO:TX:t=dim.	!
8E-L	>
16r	.
16D	.
8E-L	.
16r	.
16G	.
8B-L	.
16r	.
16d	.
=545	=545
8e-L	.
16r	.
16D	.
8E-L	.
16r	.
16F	.
8FL	.
16r	.
16G	.
=546	=546
8A-L	.
16r	.
16C	.
8CL	.
16r	.
16C	.
8DL	p
16r	.
16F	.
=547	=547
!LO:TX:t=piu piano	!
8GL	.
16r	.
16F	.
8GL	.
16r	.
16e-	.
8dL	.
16r	.
16d	.
=548	=548
8e-L	pp
16r	.
16f	.
8gL	.
16r	.
16e-	.
8dL	.
16r	.
16d	.
=549	=549
8e-L	.
16r	.
16F	.
8GL	.
16r	.
16E-	.
8DL	.
16r	.
16D	.
=550	=550
4E-	.
8.r	.
16e-	pp
8f	.
16r	.
16f	.
=551	=551
4e-	.
4e-	.
4r	.
=552	=552
4r	.
8.r	.
!LO:TX:t=sempre pp	!
16g	.
8f	.
16r	.
16f	.
=553	=553
4g	.
4g	.
4r	.
=554	=554
4r	.
4g	.
4r	.
=555	=555
4r	.
4g-	.
4r	.
=556	=556
4r	.
4g-	.
4r	.
=557||	=557||
!LO:TX:a:B:t=Presto	!
4r	.
!LO:TX:t=cresc.	!
4g-	<
4g-	.
=558	=558
4g-	.
4g-	.
4g-	.
=559	=559
4g-	.
4g-	.
4g-	.
=560	=560
4g-	.
4g-	.
4g-	.
=561!|:	=561!|:
*k[b-e-a-d-g-c-]	*
*e-:	*
4g-	f
4g-	pp
4g-	.
=562	=562
4g-	.
4g-	.
4g-	.
=563	=563
4g-	.
4g-	.
4g-	.
=564	=564
4g-	.
4g-	.
4g-	.
=565	=565
4a-	.
4a-	.
4a-	.
=566	=566
4a-	.
4a-	.
4a-	.
=567	=567
4a-	.
4a-	.
4a-	.
=568	=568
4a-	.
4a-	.
4a-	.
=569	=569
!LO:TX:t=cresc.	!
4g-	<
4g-	.
4g-	.
=570	=570
4g-	.
4g-	.
4g-	.
=571	=571
4g-	.
4g-	.
4g-	.
=572	=572
4g-	.
4g-	.
4g-	.
=573	=573
4e-	.
4g-	.
4g-	.
=574	=574
4e-	.
4g-	.
4g-	.
=575	=575
4f	.
4f	.
4f	.
=576	=576
4f	.
4f	.
4f	.
=577	=577
4g-	.
4g-	.
4g-	.
=578	=578
4g-	.
4g-	.
4g-	.
=579	=579
4f	f
4f	.
4f	.
=580	=580
4f	p
!LO:TX:t=cresc.	!
4e-	.
4g-	.
=581:|!	=581:|!
4f	f
(4F	.
4G-	.
=582	=582
4A-)	ff
(4B-	.
4c)	.
=583	=583
4d-	.
(4F	.
4G-	.
=584	=584
4A-)	.
(4B-	.
4c	.
=585	=585
4d-)	.
(4F	.
4G-	.
=586	=586
4A-)	.
(4B-	.
4c	.
=587	=587
4d-)	.
4r	.
4E-	.
=588	=588
2.D-	f
=589	=589
2.F	sf
=590	=590
2.E	.
=591	=591
2.E	sf
=592	=592
2.F	.
=593	=593
2.F	sf
=594	=594
2.G-	.
=595	=595
2.G-	.
=596	=596
2.F	.
=597	=597
2.F	sf
=598	=598
2.F	.
=599	=599
2.F	sf
=600	=600
2.E-	.
=601	=601
2.E-	sf
=602	=602
2.E-	.
=603	=603
2.f	sf
=604	=604
4f	pp
4d-	.
4d-	.
=605	=605
4d-	.
4d-	.
4d-	.
=606	=606
4d-	.
4d-	.
4d-	.
=607	=607
4d-	.
4d-	.
4d-	.
=608	=608
4e-	.
4e-	.
4e-	.
=609	=609
4e-	.
4e-	.
4e-	.
=610	=610
4e-	.
4e-	.
4e-	.
=611	=611
4e-	.
4e-	.
4e-	.
=612	=612
!LO:TX:t=cresc.	!
4d-	<
4d-	.
4d-	.
=613	=613
4d-	.
4d-	.
4d-	.
=614	=614
4d-	.
4d-	.
4d-	.
=615	=615
4d-	.
(4G-	.
4A-	.
=616	=616
4B-)	ff
(4c-	.
4d-	.
=617	=617
4d-)	.
(4g-	.
4f)	.
=618	=618
4e-	.
(4d-	.
4c-	.
=619	=619
4B-)	.
(4g-	.
4f)	.
=620	=620
4e-	.
(4d-	.
4c-	.
=621	=621
4B-)	.
(4B-	.
4A-)	.
=622	=622
2.G-	f
=623	=623
2.B-	sf
=624	=624
2.A	.
=625	=625
2.A	sf
=626	=626
2.B-	.
=627	=627
2.B-	sf
=628	=628
2.c-	.
=629	=629
2.c-	sf
=630	=630
2.B-	.
=631	=631
2.B-	sf
=632	=632
2.b-	.
=633	=633
2.b-	sf
=634	=634
2.d 2.b-	.
=635	=635
2.d 2.b-	sf
=636	=636
2.d 2.b-	.
=637	=637
2.d 2.b-	sf
=638	=638
4e- 4b-	pp
4g-	.
4g-	.
=639	=639
4g-	.
4g-	.
4g-	.
=640	=640
4g-	.
4g-	.
4g-	.
=641	=641
4g-	.
4g-	.
4g-	.
=642	=642
4f	.
4f	.
4f	.
=643	=643
4f	.
4f	.
4f	.
=644	=644
4f	.
4f	.
4f	.
=645	=645
4f	.
4f	.
4f	.
=646	=646
!LO:TX:t=cresc.	!
4e-	<
4e-	.
4e-	.
=647	=647
4e-	.
4e-	.
4e-	.
=648	=648
4e-	.
4e-	.
4e-	.
=649	=649
4e-	.
4F	.
4F	.
=650	=650
4F	ff
(4F	.
4E-	.
=651||	=651||
*k[b-e-]	*
*B-:	*
4D)	.
(4B-	.
4A)	.
=652	=652
4G	.
(4F	.
4E-	.
=653	=653
4D)	.
(4D	.
4E-	.
=654	=654
4F)	.
(4G	.
4A	.
=655	=655
4B-)	.
(4B-	.
4A	.
=656	=656
4G)	.
(4F	.
4E-)	.
=657	=657
4D	.
(4D	.
4C	.
=658	=658
2.B-)	f
=659	=659
2.d	sf
=660	=660
2.c# 2.e	.
=661	=661
2.c# 2.e	sf
=662	=662
2.d	.
=663	=663
2.d	sf
=664	=664
2.e-	.
=665	=665
2.e-	sf
=666	=666
2.d	.
=667	=667
2.d	sf
=668	=668
2.c# 2.e	.
=669	=669
2.c# 2.e	sf
=670	=670
2.d	.
=671	=671
2.d	sf
=672	=672
2.e-	.
=673	=673
2.e-	sf
=674	=674
2.d	.
=675	=675
2.d	sf
=676	=676
2.e-	.
=677	=677
2.e-	sf
=678	=678
2.d	.
=679	=679
!LO:TX:t=dim.	!
2.d	>
=680	=680
2.e-	p
=681	=681
!LO:TX:t=dim.	!
2.c 2.e-	>
=682	=682
2.c 2.e-	.
=683||	=683||
*k[b-e-a-]	*
*E-:	*
!LO:TX:a:B:t=Tempo I	!
2.r	]
=684	=684
[2.b-	pp
=685	=685
[2.b-	.
=686	=686
(4b-	.
2a)	.
=687	=687
8b-L	.
!LO:TX:t=sempre pp	!
16r	.
16B-	.
[2b-	.
=688	=688
[2.b-	.
=689	=689
2.b-	.
=690	=690
(2cc	.
4b-T	.
=691	=691
4a)	.
8.r	.
16cc	.
8b-	.
16r	.
16g	.
=692	=692
4a-	.
8.r	.
16a-	.
8g	.
16r	.
16e	.
=693	=693
4f	.
8.r	.
16f	.
8e-	.
16r	.
16c	.
=694	=694
(2d	.
4cT)	.
=695	=695
4B-	.
4r	.
4r	.
=696	=696
(2E-	.
4Dt)	.
=697	=697
4CT	.
4r	.
4r	.
=698	=698
(2F	.
4E-T)	.
=699	=699
4D	.
4r	.
4r	.
=700	=700
(2G	.
4FT)	.
=701	=701
4E-	.
!LO:TX:t=cresc.	!
4.A-	.
8F	.
=702	=702
4E-	fp
(4e-	.
4fT)	.
=703	=703
(2g	.
4a-T)	.
=704	=704
(2a-	.
4gt)	.
=705	=705
4f	.
(4d	.
4e-T)	.
=706	=706
(2f	.
4e-T)	.
=707	=707
(4f	.
4e	.
8fTL	.
8a-)	.
=708	=708
(4g	.
4e-	.
4d)	.
=709	=709
(4e-	.
[2B-)	.
=710	=710
(4B-	.
4e-	.
4d)	.
=711	=711
!LO:TX:t=p cresc.	!
(4e-	.
4g	.
4f)	.
=712	=712
4f	f
4c	.
4G 4d	.
=713	=713
4r	.
4g	p
4r	.
=714	=714
4r	.
4a	.
4r	.
=715	=715
8dL	f
8c	.
8B	.
8d	.
8c	.
8B	.
=716	=716
8e-L	p
8cc	.
8ee-L	.
8cc	.
8dd	.
8ee-	.
=717	=717
8e-L	.
8c	.
8e-	.
8c	.
8dL	.
8e-	.
=718	=718
!LO:TX:t=cresc.	!
8fL	<
8f	.
8e-L	.
8d	.
8c	.
8B-	.
=719	=719
8AL	.
8G	.
8F	.
8E-	.
8DL	.
8C	.
=720	=720
8B-L	f
8A	.
8AL	.
8c	.
8c	.
8c	.
=721	=721
4B-	.
8b-L	.
16r	.
16BLL	ff
8c	.
16r	.
16e-	.
=722	=722
8CL	.
16r	.
16D	.
8FL	.
16r	.
16E-	.
8FL	.
16r	.
16A-	.
=723	=723
8GL	.
16r	.
16A	.
8cL	.
16r	.
16B	.
8cL	.
16r	.
16e-	.
=724	=724
8dL	.
16r	.
16e-	.
8fL	.
16r	.
16e	.
8fL	.
16r	.
16f#	.
=725	=725
8GL	.
16r	.
16G	.
8gL	.
8r	.
4r	.
=726	=726
2.r	.
=727	=727
8.r	.
16G	p
4C	.
4r	.
=728	=728
2.r	.
=729	=729
8.r	.
16d	.
4G	.
4r	.
=730	=730
2.r	.
=731	=731
8.r	.
16cLL	.
8g	.
16r	.
16C	.
!LO:TX:t=cresc.	!
8GL	.
8G	.
=732	=732
(8FL	p
8c	.
8a-)	.
8c	.
8FL	.
8c	.
=733	=733
(8FL	.
8c	.
8a-)	.
8c	.
8FL	.
8c	.
=734	=734
(8EL	.
8c	.
8g)	.
8c	.
8FL	.
8c	.
=735	=735
8EL	.
8c	.
8F	.
16r	.
16f	.
!LO:TX:t=cresc.	!
8e-L	.
16r	.
16c	.
=736	=736
4A-	p
8.r	.
16A-	.
8G-	.
16r	.
16E-	.
=737	=737
4F	.
8.r	.
16g-	.
8f	.
16r	.
16d-	.
=738	=738
4A- 4a-	.
8.r	.
16c	.
8d-	.
16r	.
16A-	.
=739	=739
4A-	.
8.r	.
!LO:TX:t=cresc.	!
16C	.
8D-	.
16r	.
16A-	.
=740	=740
4A-	.
8.r	.
16F	.
8G-	.
16r	.
16A-	.
=741	=741
4A-	.
8.r	.
16E-	.
8F	.
16r	.
16A-	.
=742	=742
4G-	.
8.r	.
16G-	.
8A-	.
16r	.
16B-	.
=743	=743
8B-L	f
16r	.
16F	.
8G-L	.
16r	.
16B-	.
8A-L	.
16r	.
16A-	.
=744	=744
8B-L	.
16r	.
16d-	.
8c-L	.
16r	.
16G-	.
8A-L	.
16r	.
16d-	[
=745	=745
8d-L	ff
16r	.
16g-	.
8d-L	.
16r	.
16g-	.
8d-L	.
16r	.
16g-	.
=746	=746
8c-L	.
16r	.
16e-	.
8c-L	.
16r	.
16e-	.
8c-L	.
16r	.
16e-	.
=747	=747
8B-L	.
16r	.
16d-	.
8B-L	.
16r	.
16d-	.
8B-L	.
16r	.
16d-	.
=748	=748
8A-L	.
16r	.
16f	.
8A-L	.
16r	.
16f	.
8A-L	.
16r	.
16f	.
=749	=749
8AL	.
16r	.
16f#	.
8AL	.
16r	.
16f#	.
8AL	.
16r	.
16f#	.
=750	=750
8AL	.
16r	.
16f#	.
8AL	.
16r	.
16f#	.
8AL	.
16r	.
16f#	.
=751	=751
8DL 8d	f
16r	.
16D	.
8EL	.
16r	.
16G	.
8F#L	.
16r	.
16G	.
=752	=752
8B-L	.
16r	.
16A	.
8B-L	.
16r	.
16d	.
8cL	.
16r	.
16d	.
=753	=753
8e-L	.
16r	.
16d	.
8eL	.
16r	.
16g	.
8f#L	.
16r	.
16g	.
=754	=754
8b-L	.
16r	.
16a	.
8ccL	.
16r	.
16dd	.
4ee-	.
=755||	=755||
*M2/4	*
!LO:TX:a:B:t=Allegro	!
4r	.
(4C	p
=756	=756
4D	.
4F#)	.
=757	=757
(4G	.
4B-)	.
=758	=758
(8AL	.
16B-	.
16A)	.
8GL	.
8B-	.
=759	=759
8e-L	.
8d	.
8f#L	.
8g	.
=760||	=760||
*M3/4	*
!LO:TX:a:B:t=Tempo I	!
[2.e-	pp
=761	=761
4e-	.
4r	.
4r	.
=762	=762
4r	.
!LO:TX:a:B:t=Allegro	!
(4G	.
4B)	.
=763||	=763||
*M2/4	*
(4C	p
4E-)	.
=764	=764
(8DL	.
16E-	.
16D)	.
8CL	.
8E-	.
=765	=765
8A-L	.
8G	.
8BL	.
8c	.
=766||	=766||
*M3/4	*
!LO:TX:a:B:t=Tempo I	!
[2.c [2.g	pp
=767	=767
[2.c [2.g	.
=768	=768
4.c 4.g	.
16r	.
16E	.
8G	.
16r	.
16A-	.
=769	=769
4B-	.
8.r	.
16e	.
8g	.
16r	.
16cc	.
=770	=770
4cc	.
8.r	.
16C	.
8F	.
16r	.
16G	.
=771	=771
4A-	.
8.r	.
!LO:TX:t=cresc.	!
16C	.
8D-	.
16r	.
16d-	.
=772	=772
4c	.
8.r	.
16F	.
8G	.
16r	.
16e-	.
=773	=773
4a-	.
8.r	.
16a-	.
8g	.
16r	.
16g	.
=774	=774
8fL	f
16r	.
16b-	.
8b-L	.
8B-	.
8DL	.
8B-	.
=775	=775
8E-L	.
8B-	.
8E- 8G	.
8E-	.
8FL	.
8A-	.
=776	=776
8GL	.
8g 8b-	.
8GL	.
8G	.
8A-	.
8A	.
=777	=777
8B-L	.
8f	.
8FL	.
8B-	.
8Gt	.
8B-	.
=778	=778
8A-L	.
8F	.
8D	.
16r	.
16B-	.
4b-	.
=779	=779
8.r	.
16F	.
8d	.
16r	.
16d	.
4e-	.
=780	=780
8.r	.
16E	.
8F	.
16r	.
16G	.
4A-	.
=781	=781
2.r	.
=782	=782
8.r	.
16d	.
8e-	.
16r	.
16g	.
8fL	.
16r	.
16f	.
=783	=783
4G 4g	.
8.r	.
16E-	.
4e-	.
=784	=784
4r	.
8.r	.
16E-	.
4e-	.
=785	=785
4r	.
8.r	.
16B-	.
4b-	.
=786	=786
4r	.
8.r	.
16B-	.
4b-	.
=787	=787
8.r	.
16F	.
4f	.
4r	.
=788	=788
4r	.
8.r	.
16G	.
8A-	.
16r	.
16c	.
=789	=789
(4B-	.
4E-	.
4Dt)	.
=790	=790
(2E-	sf
4FT)	.
=791	=791
(2E-	.
4Dt)	p
=792	=792
!LO:TX:t=cresc.	!
(2E-	.
4F)	.
=793	=793
(4E-	.
4G	.
4dt)	.
=794	=794
8e-L	.
16r	.
16e-	.
8e-L	.
16r	.
16e-	.
8e-L	.
16r	.
16c	.
=795	=795
4c	f
4c	.
4d	.
=796	=796
4r	.
4cc	p
4r	.
=797	=797
4r	.
4e-	.
4r	.
=798	=798
4d	f
4f	.
4g	.
=799	=799
4r	.
4f	p
4r	.
=800	=800
4r	.
4B- 4d	.
4r	.
=801	=801
2.r	.
=802	=802
8A-L	p
8G	.
8F	.
8A-	.
8G	.
8F	.
=803	=803
8b-L	.
8b-	.
8b-	.
8b-	.
8b-	.
8b-	.
=804	=804
!LO:TX:t=cresc.	!
8a-L	<
8f	.
8fL	.
8e-	.
8d	.
8f	.
=805	=805
8e-L	.
8d	.
8cL	.
8B-	.
8A-	.
8G	.
=806	=806
8FL	f
8E-	.
8DL	.
8C	.
8B-	.
8A-	.
=807	=807
8GL	.
16r	.
16G	.
8AL	.
16r	.
16c	.
4B-	.
=808	=808
8.r	.
16E-	.
8F	.
16r	.
16A-	.
4G	.
=809	=809
8.r	.
16C	.
8D	.
16r	.
16F	.
8E-L	.
16r	.
16G	.
=810	=810
2.F	p
=811	=811
4F	.
8.r	.
16d	.
8e-	.
16r	.
16g	.
=812	=812
(4f	.
2F)	.
=813	=813
4F	.
8E-L	.
16r	.
16E-	.
8FL	.
16r	.
16B-	.
=814	=814
(2B-	.
4A-T)	.
=815	=815
8GL	.
16r	.
16D	.
8E-L	.
16r	.
16G	.
8CL	.
16r	.
16D	.
=816	=816
!LO:TX:t=dim.	!
8E-L	>
16r	.
16D	.
8E-L	.
16r	.
16G	.
8B-L	.
16r	.
16d	.
=817	=817
8e-L	.
16r	.
16D	.
8E-L	.
16r	.
16G	.
8FL	.
16r	.
16G	.
=818	=818
8A-L	.
16r	.
16C	.
8CL	.
16r	.
16C	.
8DL	p
16r	.
16F	.
=819	=819
!LO:TX:t=piu piano	!
8GL	]
16r	.
16F	.
8GL	.
16r	.
16e-	.
8dL	.
16r	.
16d	.
=820	=820
8e-L	pp
16r	.
16f	.
8gL	.
16r	.
16e-	.
8dL	.
16r	.
16d	.
=821	=821
8e-L	.
16r	.
16F	.
8GL	.
16r	.
16E-	.
8DL	.
16r	.
16D	.
=822	=822
4E-	.
8.r	.
16e-	pp
8f	.
16r	.
16f	.
=823	=823
4e-	.
4e-	.
4r	.
=824	=824
4r	.
8.r	.
!LO:TX:t=sempre pp	!
16g	.
8f	.
16r	.
16f	.
=825	=825
4g	.
4g	.
4r	.
=826	=826
4r	.
4g	.
4r	.
=827	=827
4r	.
4g-	.
4r	.
=828	=828
4r	.
4g-	.
4r	.
=829||	=829||
!LO:TX:a:B:t=Presto	!
4r	.
!LO:TX:t=cresc.	!
4g-	<
4g-	.
=830	=830
4g-	.
4g-	.
4g-	.
=831	=831
4g-	.
4g-	.
4g-	.
=832	=832
4g-	.
4g-	.
4g-	.
=833	=833
4g-	f
4g-	pp
4g-	.
=834	=834
4g-	.
4g-	.
4g-	.
=835	=835
4g-	.
4g-	.
4g-	.
=836	=836
4g-	.
4g-	.
4g-	.
=837	=837
4a-	.
4a-	.
4a-	.
=838	=838
4a-	.
4a-	.
4a-	.
=839	=839
4a-	.
4a-	.
4a-	.
=840	=840
4a-	.
4a-	.
4a-	.
=841||	=841||
!LO:TX:a:B:t=Tempo I	!
2.r	.
=842	=842
4r	.
8.r	.
16e-	pp
8f	.
16r	.
16f	.
=843	=843
4e-	.
4e-	.
4r	.
=844	=844
4r	.
8.r	.
!LO:TX:t=sempre pp	!
16g	.
8f	.
16r	.
16f	.
=845	=845
4g	.
4g	.
4r	.
=846	=846
4r	.
4g	.
4r	.
=847	=847
4r	.
4g	.
!LO:TX:t=cresc.	!
8gL	<
16r	.
16g	.
=848	=848
8e-L	.
16r	.
16e-	.
8cL	.
16r	.
16a-	.
8gL	.
16r	[
16E- 16G	ff
=849	=849
4E- 4G	.
8E-L 8G	.
8r	.
4r	.
=850	=850
*M2/2	*
!LO:TX:a:B:t=Finale	!
4G	f
4G	.
[2A-	sf
=851	=851
(4A-	p
4F	.
4D	.
4E-	.
=852	=852
4B	.
4c	.
4A	.
4B-	.
=853	=853
4G	.
4A-	.
4F	.
4B-)	.
=854	=854
[1E-	.
=855	=855
[1E-	.
=856	=856
(2E-	.
[2E-)	.
=857	=857
(2.E-	.
4D	.
=858	=858
4E-	.
4F	.
4E-	.
4D	.
=859	=859
4E-	.
4F	.
4G	.
4A-	.
=860	=860
4G	.
4E-	.
4F	.
4G	.
=861	=861
4G	.
4c	.
4B-	.
4F)	.
=862	=862
[1E-)	.
=863	=863
[1E-	.
=864	=864
(2E-	.
[2E-)	.
=865	=865
(2.E-	.
4D	.
=866	=866
4E-	.
4F	.
4E-	.
4D	.
=867	=867
4E-	.
4F	.
4G	.
4A-	.
=868	=868
4B-	.
4G	.
4E-	.
4F	.
=869	=869
4D	.
4E-)	.
4E-	.
4r	.
=870	=870
2r	.
4r	.
4e-	.
=871	=871
(4e-	.
4f	.
4g)	.
4g	.
=872	=872
(4a	f
4A)	.
(4f	.
4e-)	.
=873	=873
(4A	.
4B-)	.
4B-	.
4r	.
=874	=874
2r	.
4r	.
4e-	p
=875	=875
(4e-	.
4f	.
4g)	.
4E-	.
=876	=876
4E-	f
4r	.
(4E-	.
4F)	.
=877	=877
(4G	.
4F	.
4G)	.
(4B-	p
=878	=878
4e-	.
4d	.
4e-	.
4g	.
=879	=879
4B-	.
4A-	.
4G)	.
(8E-	.
8F	.
=880	=880
4G)	f
(8A-	.
8B-	.
4c)	.
(8d	.
8e-)	.
=881	=881
(4e-	.
4f)	.
4d	.
(4B-	p
=882	=882
4e-	.
4d	.
4e-	.
4g	.
=883	=883
4B-	.
4A-	.
4G)	.
(8E-	.
8F	.
=884	=884
4G)	f
(8c	.
8d	.
4e-)	.
(8e-	.
8f	.
=885	=885
4g)	.
(8e-	.
8A-	.
4G)	.
(8E-	.
8F)	.
=886	=886
(2G	pp
2F	.
=887	=887
2E-	.
2F)	.
=888	=888
1E-	.
=889	=889
!LO:TX:t=sempre pp	!
!LO:TX:t=sempre pp	!
(8cL	.
8B-)	.
8D	.
8D	.
(8E-L	.
8D	.
8E-	.
8F)	.
=890	=890
(8GL	.
8B-	.
8G	.
8E-	.
2A-)	.
=891	=891
(8GL	.
8B-	.
8G	.
8E-	.
2A-)	.
=892	=892
(8E-L	.
8B-	.
8G	.
8E-	.
2A)	.
=893	=893
(4B-	.
4c	.
4A	.
4F)	.
=894	=894
(8FL	.
8d	.
8B-	.
8F	.
!LO:TX:t=sempre pp	!
8E-L	.
8F	.
8E-	.
8F)	.
=895	=895
(8FL	.
8d	.
8B-	.
8F	.
8E-L	.
8F	.
8E-	.
8F)	.
=896	=896
(8FL	.
8d	.
8B-	.
8F	.
8B-L	.
8A	.
8B-)	.
8G	.
=897	=897
4F	.
4r	.
2r	.
=898	=898
2r	.
(8fL	.
8cc	.
8a	.
8f	.
=899	=899
4dd)	.
4r	.
(8fL	.
8cc	.
8a	.
8f)	.
=900	=900
(8ddL	.
8b-	.
8f	.
8d	.
!LO:TX:t=cresc.	!
2g)	<
=901	=901
2c	.
[2cc	.
=902	=902
(4cc	.
4b)	.
4cc	.
4g)	.
=903	=903
(4d	.
4c	.
4e-	.
4c)	.
=904	=904
4B-	f
4b-	.
4b-	.
4cc	.
=905	=905
4dd	.
4f	.
4b-	.
4B-	.
=906	=906
4B-	f
4B	.
4c	f
(8d	.
8e)	.
=907	=907
4f	f
4g	.
4a	f
(8b-	.
8cc)	.
=908	=908
4b-	.
4g	.
4f	.
4e-	.
=909	=909
4d	.
4c	.
4B-	.
4B-	.
=910	=910
4B-	.
4B	.
4c	f
4d	.
=911	=911
4f	.
4r	.
2r	.
=912	=912
4f	p
4e-	.
4d	.
4c	.
=913	=913
4B-	.
4r	.
2r	.
=914	=914
4e-	f
4d	.
4c	f
4B-	.
=915	=915
4c	.
4d-	.
4c	f
4d-	.
=916	=916
1r	.
=917	=917
2r	.
4G	f
4g	.
=918	=918
1r	.
=919	=919
2r	.
4D	f
4d	.
=920	=920
2r	.
4E-	f
4e-	.
=921	=921
2r	.
4F	.
4f	.
=922	=922
4d#	ff
4G 4e	.
2G 2e	.
=923	=923
4d#	.
4G 4e	.
2G 2e	.
=924	=924
4d#	.
4G 4e	.
2G 2e	.
=925	=925
(4F	.
4G	.
4B-)	.
(8c	.
8d)	.
=926	=926
4C 4G	.
4C 4G	.
2C 2G	.
=927	=927
4C 4G	.
4C 4G	.
2C 2G	.
=928	=928
4C 4G	.
4C 4G	.
2C 2G	.
=929	=929
(4F	.
4G	.
4B-)	.
(8c	.
8d)	.
=930	=930
(8dL	f
8e-	.
8f	.
8e-)	.
4e-	.
4c	.
=931	=931
(8cL	.
8d	.
8e-	.
8d)	.
4d	.
4B-	p
=932	=932
(8AL	.
8G	.
8F	.
8G)	.
4F	.
4G	.
=933	=933
(8FL	.
8E-	.
8D	.
8E-)	.
4D	.
(8c	f
8d)	.
=934	=934
(8dL	.
8e-	.
8f	.
8e-)	.
4e-	.
4c	.
=935	=935
(8cL	.
8d	.
8e-	.
8d)	.
4d	.
(8cc	p
8b-)	.
=936	=936
(8b-L	.
8a-	.
8g	.
8a-	.
4a-)	.
4a-	.
=937	=937
(8a-L	.
8g	.
8f	.
8g)	.
4g	.
4r	.
=938	=938
1r	.
=939	=939
2r	.
4r	.
4g	p
=940	=940
(8e-L	.
8f)	.
4r	.
2r	.
=941	=941
(8fL	.
8g)	.
4r	.
2r	.
=942	=942
(8e-L	pp
8g)	.
4r	.
2r	.
=943	=943
(8BL	.
8e-)	.
4r	.
2r	.
=944	=944
!LO:TX:t=cresc.	!
(8GL	<
8B)	.
4r	.
2r	.
=945	=945
(8E-L	.
8G)	.
4r	.
(8E-L	.
8G)	.
4r	.
=946	=946
4G 4g	f
4g	.
[2a-	sf
=947	=947
(4a-	p
4f	.
4d	.
4e-	.
=948	=948
4B	.
4c	.
4A	.
4B-	.
=949	=949
4G	.
4A-	.
!LO:TX:t=sempre p	!
4F	.
4B-	.
=950	=950
4F	.
4G	.
4E-	.
4A-	.
=951	=951
4A	.
4B-	.
4G)	.
4r	.
=952	=952
2r	.
4r	.
(4B-	.
=953	=953
2.g	.
4G	.
=954	=954
4B-	.
4c	.
4A-)	.
(4dd-	.
=955	=955
4b	.
4cc)	.
4cc	.
4cc	.
=956	=956
4cc	pp
4cc	.
4cc	.
4cc	.
=957	=957
4cc	.
4cc	.
4cc	.
4cc	.
=958	=958
4cc	.
4cc	.
4dd	.
4cc	.
=959	=959
4dd	.
4a	.
4b	.
4dd	.
=960	=960
4C	.
4C	.
4C	.
4C	.
=961	=961
(4C	.
8D	.
8E-)	.
4F	.
4E-	.
=962	=962
4A-	.
4G	.
4F	f
4E-	.
=963	=963
4D	.
4C	.
4D	f
4E-	.
=964	=964
4G	.
4g	.
4G	.
4G	.
=965	=965
(4G	.
8A	.
8B)	.
4c	.
4B	ff
=966	=966
4e-	.
4d	.
qqd	f
4c	.
4B	.
=967	=967
qqB	f
4A	.
4G	.
4F#	f
4G	.
=968	=968
4e-	.
4d	.
qqd	f
4c	.
4B	.
=969	=969
4A-	f
4G	.
4F	f
4D	.
=970	=970
(2e-	pp
2f	.
=971	=971
2e-	.
2c)	.
=972	=972
(8gL	.
8dd	.
8b	.
8g	.
2ee-)	.
=973	=973
(8gL	.
8dd	.
8b	.
8g	.
2dd)	.
=974	=974
!LO:TX:t=cresc.	!
4ee	<
4g 4cc	.
4f 4cc	.
4f 4cc	.
=975	=975
4e 4cc	.
4C 4c	.
4C 4c	.
4C 4c	.
=976	=976
4C 4c	[
4C 4c	.
(8CL	.
8G	.
8E	.
8C)	.
=977	=977
(8EL	.
8c	.
8G	.
8E	.
8GL	.
8e	.
8c	.
8G)	.
=978	=978
(8cL	.
8g	.
8e	.
8c	.
8eL	.
8cc	.
8g	.
8e	.
=979	=979
8gL	.
8ee	.
8cc	.
8g	.
8eL	.
8c	.
8G	.
8E)	.
=980	=980
4C 4A	f
4C 4c	.
(8CL	f
8G	.
8E	.
8C)	.
=981	=981
(8EL	.
8c	.
8G	.
8E	.
8GL	.
8e	.
8c	.
8G)	.
=982	=982
(8cL	.
8g	.
8e	.
8c	.
8eL	.
8cc	.
8g	.
8e	.
=983	=983
8gL	.
8ee	.
8cc	.
8g	.
8eL	.
8c	.
8G	.
8E	.
=984	=984
4C)	.
(4c	.
4d	.
4f	.
=985	=985
4b-)	.
(4B-	.
4c	.
4e-	.
=986	=986
4a-)	.
(4A-	.
4B-)	.
4d-	.
=987	=987
4g)	.
!LO:TX:t=cresc.	!
(4G	<
4A-	.
4a-)	.
=988	=988
4f	.
(4F	.
4G	.
4g	.
=989	=989
4c)	.
(4C	.
4F	.
4f	.
=990	=990
!LO:TX:t=dim.	!
4c)	>
(4cc	.
4cc-	.
4c-	.
=991	=991
4B-	.
4b-	.
4a-	.
4A-	.
=992	=992
4f	pp
4a-	.
4g	.
4G)	.
=993	=993
(4g	.
2dd-	.
8g	.
8b-)	.
=994	=994
(8a-L	p
8ee-	.
8cc	.
8a-	.
2dd-)	.
=995	=995
(8a-L	.
8ee-	.
8cc	.
8a-	.
2dd-)	.
=996	=996
(8a-L	.
8ee-	.
8cc	.
8a-	.
2dd)	.
=997	=997
(4ee-	.
4ff	.
4dd-	.
4b-)	.
=998	=998
(4a-	.
4g	.
4f	.
4e-	.
=999	=999
4f	.
4g	.
4a-	.
4b-	.
=1000	=1000
4cc	.
4ee-	.
4dd-	.
4cc)	.
=1001	=1001
(4cc	.
4b-)	.
2b-	.
=1002	=1002
(8a-L	.
8ee-	.
8cc	.
8a-	.
2dd-)	.
=1003	=1003
(8a-L	.
8ee-	.
8cc	.
8a-	.
2dd-)	.
=1004	=1004
(8a-L	.
8ee-	.
8cc	.
8a-	.
2dd)	.
=1005	=1005
(4ee-	.
4ff	.
4dd-	.
4b-)	.
=1006	=1006
(4a-	.
4g	.
4f	.
4e-	.
=1007	=1007
4f	.
4g	.
4a-	.
4b-	.
=1008	=1008
4cc	.
4ee-	.
4dd-	.
4b-)	.
=1009	=1009
(4b-	.
4a-)	.
4a-	.
4r	.
=1010	=1010
1r	.
=1011	=1011
2r	.
4r	.
4c	p
=1012	=1012
!LO:TX:t=cresc.	!
(4c	.
4B-)	.
(8B-L	.
8A-	.
8G	.
8F)	.
=1013	=1013
(4E-	.
4B-	.
4E-)	.
4r	.
=1014	=1014
2r	.
4r	.
(4E-	.
=1015	=1015
4E-)	.
4E	.
4F)	.
4C	p
=1016	=1016
!LO:TX:t=cresc.	!
!LO:TX:t=cresc.	!
2.D-	<
4d-	.
=1017	=1017
4e-	.
2E-	.
(8E-	.
8D-)	.
=1018	=1018
(2C	.
[2C)	.
=1019	=1019
(4C	.
4D-	.
4E-	.
4E	.
=1020	=1020
4F	.
4G	.
4A-	.
4B-	.
=1021	=1021
4E-	.
4d	.
4e-	.
4d-	.
=1022	=1022
4c	.
4B-	.
4A-	.
4E-	.
=1023	=1023
4F	.
4G	.
4A-)	.
[4C	[
=1024	=1024
4C	.
2D-	.
4E-	.
=1025	=1025
(4E-	.
8b-	.
8g	.
4d-)	.
(4b-	p
=1026	=1026
4a-)	.
4r	.
2r	.
=1027	=1027
1r	.
=1028	=1028
1r	.
=1029	=1029
1r	.
=1030	=1030
1r	.
=1031	=1031
1r	.
=1032	=1032
2r	.
4r	.
[4dd	.
=1033	=1033
4dd	pp
[2.dd	.
=1034	=1034
4dd	.
[2.dd	.
=1035	=1035
4dd	.
2.dd	.
=1036	=1036
(4ee-	.
4b-	.
2a-)	.
=1037	=1037
(4ee-	.
4b-	.
2a-)	.
=1038	=1038
(4ee-	.
4b-	.
8ccL	.
8ee-	.
8dd	.
8cc)	.
=1039	=1039
(4b-	.
4g	.
4a-	.
4c)	.
=1040	=1040
!LO:TX:t=p dolce	!
(4g-	.
4f	.
4e-	.
4d	.
=1041	=1041
4e-	.
4f	.
4g	.
4A-	.
=1042	=1042
4G	.
4E-	.
4F	.
4G)	.
=1043	=1043
(4G	.
4c	.
4B-)	.
!LO:TX:t=dolce	!
!LO:TX:t=dolce	!
4F 4A-	.
=1044	=1044
(8E-L 8G	.
8B-	.
8G	.
8E-	.
2A-)	.
=1045	=1045
(8GL	.
8B-	.
8G	.
8E-	.
2A-)	.
=1046	=1046
(8GL	.
8B-	.
8G	.
8E-	.
2A)	.
=1047	=1047
[2B-	.
(8B-L	.
8D	.
8E-	.
8F)	.
=1048	=1048
!LO:TX:t=cresc.	!
(4G	<
4F	.
4E-	.
4D	.
=1049	=1049
4E-	.
4F	.
4G	.
4A-)	.
=1050	=1050
4B-	p
(2E-	.
8F	.
8A-)	.
=1051	=1051
(4A-	.
4G)	.
4G	.
8e-	.
8f	.
=1052	=1052
8gL	.
8f	.
8f	.
8e-	.
8ee-L	.
8dd	.
8cc	.
8b-	.
=1053	=1053
8a-L	.
8g	.
8a-	.
8f	.
8e-L	.
8g	.
8a-	f
8b-	.
=1054	=1054
8ccL	.
8ee-	.
8ee-	.
8dd	.
8ddL	.
8cc	.
8cc	.
8dd	.
=1055	=1055
8ddL	.
8ee-	.
8dd	.
8cc	.
8ccL	.
8b-	.
8b-	p
8a-	.
=1056	=1056
8gL	.
8f	.
8f	.
8e-	.
8ee-L	.
8dd	.
8cc	.
8b-	.
=1057	=1057
8a-L	.
8g	.
8f	.
8f	.
8fL	.
8e-	.
8G	.
8G	.
=1058	=1058
8GL	f
8A-	.
8A-	.
8B-	.
8B-L	.
8c	.
8c	.
8d	.
=1059	=1059
8dL	.
8e-	.
8b-	.
8a-	.
4g	.
4g	p
=1060	=1060
(4g	.
4f	.
4g	.
4b-	.
=1061	=1061
4g	.
4f	.
4e-)	.
4g	.
=1062	=1062
(4g	f
4e-)	.
(qqd	.
qqe-	.
4d	.
4c)	.
=1063	=1063
(qqe-	.
qqf	.
4e-	.
4d)	.
4d	.
4g	p
=1064	=1064
(4g	.
4f	.
4g	.
4b-	.
=1065	=1065
4g	.
4f	.
4e-)	.
4g	.
=1066	=1066
(4cc	f
4a-)	.
(qqg	.
qqa-	.
4g	.
4f)	.
=1067	=1067
(8e-L	.
8B-)	.
(8B-	.
8A-)	.
8GL	.
(8G	.
8A-	.
8F)	.
=1068	=1068
4G	.
4e-	.
4e-	.
4e-	.
=1069	=1069
4e-	.
4ee-	.
4ee-	.
4ee-	.
=1070	=1070
4ee-	f
4ee-	.
4b-	f
4b-	.
=1071	=1071
4b-	f
4b-	.
4b-	f
4a-	.
=1072	=1072
4g	.
4cc	.
4b-	.
4a-	.
=1073	=1073
4g	.
4f	.
4e-	.
4e-	.
=1074	=1074
4b-	.
8b-	.
8cc	.
4dd	f
4ee-	.
=1075	=1075
4dd	f
4r	.
4r	f
4B-	.
=1076	=1076
4B-	p
4A-	.
4G	.
4F	.
=1077	=1077
4E-	.
4r	.
2r	.
=1078	=1078
4d	f
4e-	.
4b-	f
4b-	.
=1079	=1079
4b-	f
4f	.
4f	f
4g-	.
=1080	=1080
4G-	p
4G	.
4E-	.
4G	.
=1081	=1081
4A-	.
4A	.
2C 2c	f
=1082	=1082
1r	.
=1083	=1083
2r	.
4G	f
4g	.
=1084	=1084
2r	.
4A-	f
4a-	.
=1085	=1085
2r	.
4B-	f
4b-	.
=1086	=1086
4G#	ff
4A	.
2F 2A	.
=1087	=1087
4G#	.
4A	.
2F 2A	.
=1088	=1088
4G#	.
4A	.
2F 2A	.
=1089	=1089
(4B-	.
4c	.
4e-)	.
(8f	.
8g)	.
=1090	=1090
4F 4c	.
4F 4c	.
2F 2c	.
=1091	=1091
4F 4c	.
4F 4c	.
2F 2c	.
=1092	=1092
4F 4c	.
4F 4c	.
2F 2c	.
=1093	=1093
(4G	.
4C	.
8E-L)	.
(8e-	.
8f	.
8g)	.
=1094	=1094
(8e-L	.
8f	.
8g	.
8f)	.
4f	.
4f	.
=1095	=1095
(8fL	.
8g)	.
8g	.
8g	.
4g	.
4e-	p
=1096	=1096
(8dL	.
8c	.
8B-	.
8c)	.
4B-	.
4c	.
=1097	=1097
(8B-L	.
8A-	.
8G	.
8A-)	.
4G	.
4g	f
=1098	=1098
(8e-L	.
8f	.
8g	.
8f)	.
4f	.
4f	.
=1099	=1099
(8fL	.
8g)	.
8g	.
8g	.
4g	.
4r	.
=1100	=1100
(8CL	.
8D)	.
4r	.
2r	.
=1101	=1101
(8DL	.
8E-)	.
4r	.
2r	.
=1102	=1102
(8DL	.
8E-)	.
4r	.
2r	.
=1103	=1103
!LO:TX:B:t=Rit.	!
(8E-L	.
8G)	.
4r	.
2r	.
=1104	=1104
(8EL	.
8G)	.
4r	.
2r	.
=1105||	=1105||
*k[]	*
*C:	*
*M6/8	*
!LO:TX:a:B:t=Allegro con moto	!
2.r	.
=1106	=1106
2.r	.
=1107	=1107
(8eL	.
8g)	.
8r	.
(8eL	pp
8g)	.
8r	.
=1108	=1108
(8e	.
4cc)	.
4.b	.
=1109	=1109
(8eL	.
4cc)	.
[4.e-	.
=1110	=1110
(8e-L	.
!LO:TX:t=sempre pp	!
16cc)	.
16r	.
8r	.
4r	.
8r	.
=1111	=1111
!LO:TX:t=sempre pp	!
(24cLL	.
24A-	.
24B-	.
24cLL	.
24d-	.
24e-	.
24fLL	.
24g	.
24a-	.
24b-LL	.
24a-	.
24g	.
24fLL	.
24e-	.
24d-	.
24cLL	.
24d-	.
24B-)	.
=1112	=1112
(24cLL	.
24A-	.
24B	.
24cLL	.
24d-	.
24e-	.
24fLL	.
24g	.
24a-	.
24a-LL	.
24cc-	.
24a-	.
24cc-LL	.
24a-	.
24cc-	.
24a-LL	.
24cc-	.
24a-	.
=1113	=1113
24cc-LL	.
24a-	.
24cc-	.
24a-LL	.
24cc-	.
24a-)	.
(24G#LL	.
24G#	.
24G#	.
24G#LL	.
24A	.
24B	.
24c#LL	.
24d#	.
24e	.
24f#LL	.
24g#	.
24a)	.
=1114	=1114
!LO:TX:t=sempre pp	!
8bL	.
[4E	.
[4.E	.
=1115	=1115
[4.E	.
4.E	.
=1116	=1116
8E-L	.
8E-	.
8r	.
8E-L	.
8E-	.
8r	.
=1117	=1117
8E-L	.
8E-	.
8r	.
8E-	.
8E-	.
8r	.
=1118||	=1118||
*k[b-e-a-]	*
*E-:	*
(8e-L	pp
8b-)	.
16gLL	.
16e-	.
(16B-LL	.
[16a-)	.
4a-	.
=1119	=1119
(8e-L	.
8b-)	.
16gLL	.
16e-	.
(16ALL	.
[16a)	.
4a	.
=1120	=1120
!LO:TX:t=cresc.	!
!LO:TX:t=cresc.	!
(16B-LL	<
16b-)	<
(16BLL	.
16b)	.
8r	.
(16BLL	.
16b)	.
(16cLL	.
16cc)	.
8r	.
=1121	=1121
(16A-LL	.
16a-)	.
(16ALL	.
16a)	.
8r	.
(16ALL	.
16a)	.
(16B-LL	.
16b-)	.
8r	.
=1122	=1122
(24E-LL	.
24e-	.
24E-	.
24e-LL	.
24E-	.
24e-	.
24E-LL	.
24e-	.
24E-	.
24e-LL	.
24E-	.
24e-	.
24E-LL	.
24e-	.
24E-	.
24e-LL	.
24E-	.
24e-)	.
=1123	=1123
(24E-LL	.
24e-	.
24E-	.
24e-LL	.
24E-	.
24e-	.
24E-LL	.
24e-	.
24E-	.
24e-LL	.
24E-	.
24e-	.
24E-LL	.
24e-	.
24E-	.
24e-LL	.
24E-	.
24e-)	.
=1124	=1124
(24E-LL	.
24e-	.
24E-	.
24e-LL	.
24E-	.
24e-	.
24E-LL	.
24e-	.
24E-	.
24e-LL	.
24E-	.
24e-	.
24E-LL	.
24e-	.
24E-	.
24e-LL	.
24E-	.
24e-)	.
=1125	=1125
(24E-LL	.
24e-	.
24E-	.
24e-LL	.
24E-	.
24e-	.
24E-LL	.
24e-	.
24E-	.
24e-LL	.
24E-	.
24e-	.
24E-LL	.
24e-	.
24E-	.
24e-LL	.
24E-	.
24e-)	.
=1126	=1126
(24gLL	ff
24e-	.
24f	.
24gLL	.
24a-	.
24b-	.
24ccLL	.
24dd	.
24ee-	.
24ddLL	.
24cc	.
24b-	.
24a-LL	.
24g	.
24f	.
24e-LL	.
24f	.
24d)	.
=1127	=1127
(24B-LL	.
24G	.
24A-	.
24B-LL	.
24c	.
24d	.
24e-LL	.
24f	.
24g)	.
24ccLL	sf
24cc	.
24cc	.
24ccLL	.
24cc	.
24cc	.
24ccLL	.
24cc	.
24cc	.
=1128	=1128
24B-LL 24a-	sf
24B- 24a-	.
24B- 24a-	.
24B-LL 24a-	.
24B- 24a-	.
24B- 24a-	.
24B-LL 24a-	.
24B- 24a-	.
24B- 24a-	.
24B-LL 24f	.
24B- 24f	.
24B- 24f	.
24B-LL 24f	.
24B- 24f	.
24B- 24f	.
24B-LL 24f	.
24B- 24f	.
24B- 24f	.
=1129	=1129
24B-LL 24f	sf
24B- 24f	.
24B- 24f	.
24B-LL 24f	.
24B- 24f	.
24B- 24f	.
24B-LL 24f	.
24B- 24f	.
24B- 24f	.
24B-LL 24f	sf
24B- 24f	.
24B- 24f	.
24B-LL 24f	.
24B- 24f	.
24B- 24f	.
24B-LL 24f	.
24B- 24f	.
24B- 24f	.
=1130	=1130
(24B-LL 24e-	p
24E-	.
24F	.
24GLL	.
24A-	.
24B-	.
24cLL	.
24d	.
24e-	.
24fLL	.
24g	.
24a-	.
24b-LL	.
24cc	.
24dd	.
24ee-LL	.
24ff	.
24dd	.
=1131	=1131
24b-LL)	.
(24G	.
24A-	.
24B-LL	.
24c	.
24d	.
24e-LL	.
24f	.
24g	.
24e-LL	.
24cc	.
24b-	.
24aLL	.
24g	.
24f	.
24e-LL	.
24d	.
24c)	.
=1132	=1132
24B-LL	.
24B-	.
24B-	.
24B-LL	.
24B-	.
24B-	.
24B-LL	.
24B-	.
24B-	.
24B-LL	.
24B-	.
24B-	.
24B-LL	.
24B-	.
24B-	.
24B-LL	.
24B-	.
24B-	.
=1133	=1133
24B-LL	.
24B-	.
24B-	.
24B-LL	.
24B-	.
24B-	.
24B-LL	.
24B-	.
24B-	.
24B-LL	f
24B-	.
24B-	.
24B-LL	.
24B-	.
24B-	.
24B-LL	.
24B-	.
24B-	.
=1134	=1134
8B-L	p
8A-	.
8r	.
8b-L	.
8b-	.
8r	.
=1135	=1135
(8b-L	.
8cc)	.
16a-	.
16f	.
(8e-L	.
8f)	.
16d	.
16B-	.
=1136	=1136
8b-L	.
8b-	.
8r	.
!LO:TX:t=cresc.	!
8b-L	<
8b-	.
8r	.
=1137	=1137
(8b-L	.
8cc)	.
16a-LL	.
16f	.
(8gL	.
8a-)	.
16fLL	.
16A- 16f	.
=1138	=1138
24GLL	ff
24G	.
24G	.
24GLL	.
24G	.
24G	.
24A-LL	.
24A-	.
24A-	.
24A-LL	.
24A-	.
24A-	.
24FLL	.
24F	.
24F	.
24FLL	.
24F	.
24F	.
=1139	=1139
!LO:TX:t=non legato	!
24e-LL	.
24d	.
24c	.
24b-LL	.
24a-	.
24g	.
24ccLL	.
24b-	.
24a-	.
24gLL	.
24f	.
24e-	.
24dLL	.
24c	.
24B-	.
24cLL	.
24d	.
24B-	.
=1140	=1140
8e-L	.
8E- 8G	.
8r	.
8r	.
8B- 8d	.
8r	.
=1141	=1141
8r	.
8e-	.
8r	.
8r	.
8B-	.
8r	.
=1142	=1142
(24gLL	pp
24a-	.
24g)	.
24a-LL	.
24a-	.
24a-	.
(24gLL	.
24a-	.
24g)	.
(24gLL	.
24a-	.
24g)	.
24a-LL	.
24a-	.
24a-	.
8gJ	.
=1143	=1143
24B-LL 24g	.
24B- 24g	.
24B- 24g	.
24B-LL 24g	.
24B- 24g	.
24B- 24g	.
24B-LL 24g	.
24B- 24g	.
24B- 24g	.
(8B-L	.
8f)	.
16dLL	.
16B-	.
=1144	=1144
(24gLL	.
24a-	.
24g)	.
24a-LL	.
24a-	.
24a-	.
(24gLL	.
24a-	.
24g)	.
(24gLL	.
24a-	.
24g)	.
24a-LL	.
24a-	.
24a-	.
8gJ	.
=1145	=1145
24gLL	pp
24g	.
24g	.
24gLL	.
24g	.
24g	.
24gLL	.
24g	.
24g	.
24g-LL	.
24g-	.
24g-	.
24g-LL	.
24g-	.
24g-	.
24g-LL	.
24g-	.
24g-	.
=1146	=1146
24gLL	.
24g	.
24g	.
24gLL	.
24g	.
24g	.
24gLL	.
24g	.
24g	.
!LO:TX:t=cresc.	!
24g-LL	<
24g-	.
24g-	.
24g-LL	.
24g-	.
24g-	.
24g-LL	.
24g-	.
24g-	.
=1147	=1147
4B-	f
8r	.
4B- 4f 4dd	ff
8r	.
=1148	=1148
4G 4e- 4ee-	.
8r	.
4r	.
8r	.
==	==
*-	*-
